!!!!SEGMENT: pl-wtm--r-1434_stefani-jozef--polonez-na-ustroniu.krn
!!!id: 18xx:2454
!!!COM: Stefani, Józef
!!!COM-rism: pe30024097
!!!CDT: 1800/04/16-1876/03/19
!!!CNT: Polish
!!!OTL: Polonez na ustroniu
!!!PDT:
!!!SMS-siglum: PL-Wtm
!!!SMS-shelfmark: R 1434
!!!SMS-variant:
!!!SMS-altvar:
!!!NIFC-rismID: 1001116263
!!!system-decoration: [(s1,s2)][(s3,s4,s5)][(s6)][(s7)][(s8)][(s9)]{(s10,s11)}[(s12,s13)][(s14)]
**kern	**dynam	**kern	**dynam	**kern	**dynam	**kern	**dynam	**kern	**dynam	**kern	**dynam	**kern	**dynam	**kern	**dynam	**kern	**dynam	**kern	**dynam	**kern	**dynam	**kern	**dynam	**kern	**dynam	**kern	**dynam
*part14	*part14	*part13	*part13	*part12	*part12	*part11	*part11	*part10	*part10	*part9	*part9	*part8	*part8	*part7	*part7	*part6	*part6	*part5	*part5	*part4	*part4	*part3	*part3	*part2	*part2	*part1	*part1
*staff14	*	*staff13	*	*staff12	*	*staff11	*	*staff10	*	*staff9	*	*staff8	*	*staff7	*	*staff6	*	*staff5	*	*staff4	*	*staff3	*	*staff2	*	*staff1	*
*I"Tolombas	*	*I"Baſsi	*	*I"Viole	*	*I"Violini	*	*I"Violini	*	*I"Trombone	*	*I"Timpani C. G.	*	*I"Triangel solo	*	*I"Trombe in C	*	*I"Fagoto	*	*I"Corni in C	*	*I"Clarinetti in C	*	*I"Oboe	*	*I"Flauto	*
*I'Tolombas	*	*I'bc	*	*I'vla	*	*I'vl 2	*	*I'vl 1	*	*I'trb	*	*I'timp	*	*I'triangle solo	*	*I'tr in C	*	*I'fag	*	*I'cor in C	*	*I'cl in C	*	*I'ob	*	*I'fl	*
*stria1	*	*	*	*	*	*	*	*	*	*	*	*	*	*	*	*	*	*	*	*	*	*	*	*	*	*	*
*clefF1	*	*clefF4	*	*clefC3	*	*clefG2	*	*clefG2	*	*clefF4	*	*clefF4	*	*clefG2	*	*clefG2	*	*clefF4	*	*clefG2	*	*clefG2	*	*clefG2	*	*clefG2	*
*	*	*Trd0c0	*	*	*	*	*	*	*	*	*	*	*	*Trd0c0	*	*	*	*	*	*Trd0c0	*	*	*	*	*	*	*
*k[]	*	*k[]	*	*k[]	*	*k[]	*	*k[]	*	*k[]	*	*k[]	*	*k[]	*	*k[]	*	*k[]	*	*k[]	*	*k[]	*	*k[]	*	*k[]	*
*M3/4	*	*M3/4	*	*M3/4	*	*M3/4	*	*M3/4	*	*M3/4	*	*M3/4	*	*M3/4	*	*M3/4	*	*M3/4	*	*M3/4	*	*M3/4	*	*M3/4	*	*M3/4	*
=1	=1	=1	=1	=1	=1	=1	=1	=1	=1	=1	=1	=1	=1	=1	=1	=1	=1	=1	=1	=1	=1	=1	=1	=1	=1	=1	=1
!	!	!	!	!LO:TX:a:t=Col b&colon;	!	!	!	!	!	!	!	!	!	!	!	!	!	!LO:TX:a:t=Col b&colon;	!	!	!	!	!	!	!	!	!
!	!	!LO:TX:b:t=|	!	!LO:TX:b:t=|	!	!LO:TX:a:t=Unis	!	!	!	!	!	!	!	!	!	!	!	!LO:TX:b:t=|	!	!	!	!	!	!	!	!LO:TX:t=P:problem:caudy w dół różnie	!
!LO:SIC:s=4C\	!	!	!	!	!	!	!	!	!	!	!	!	!	!	!	!	!	!	!	!	!	!	!	!	!	!	!
4Re\	.	8C/L	.	8c/L	.	8c'/L	.	8c'/L	.	2.r	.	8C/L	f	2.r	.	4r	.	8C/L	.	2.r	.	4r	.	4r	.	4r	.
!	!	!LO:TUP:a:problem:klamra łukowa	!	!LO:TUP:a:problem:klamra łukowa	!	!LO:TUP:a:problem:klamra łukowa	!	!LO:TUP:a:problem:klamra łukowa	!	!	!	!	!	!	!	!	!	!LO:TUP:a:problem:klamra łukowa	!	!	!	!	!	!	!	!	!
.	.	24GG/L	.	24G/L	.	24G/L	.	24G/L	.	.	.	8GG/J	.	.	.	.	.	24GG/L	.	.	.	.	.	.	.	.	.
.	.	24AA/	.	24A/	.	24A/	.	24A/	.	.	.	.	.	.	.	.	.	24AA/	.	.	.	.	.	.	.	.	.
.	.	24BB/JJ	.	24B/JJ	.	24B/JJ	.	24B/JJ	.	.	.	.	.	.	.	.	.	24BB/JJ	.	.	.	.	.	.	.	.	.
4r	.	8C'/L	.	8c'/L	.	8c'/L	.	8c'/L	.	.	.	8C/L	.	.	.	4r	.	8C'/L	.	.	.	4r	.	4r	.	2r	.
!	!	!LO:TUP:a:problem:klamra łukowa	!	!LO:TUP:a:problem:klamra łukowa	!	!LO:TUP:a:problem:klamra łukowa	!	!LO:TUP:a:problem:klamra łukowa	!	!	!	!	!	!	!	!	!	!LO:TUP:a:problem:klamra łukowa	!	!	!	!	!	!	!	!	!
.	.	24GG/L	.	24G/L	.	24G/L	.	24G/L	.	.	.	8GG/J	.	.	.	.	.	24GG/L	.	.	.	.	.	.	.	.	.
.	.	24AA/	.	24A/	.	24A/	.	24A/	.	.	.	.	.	.	.	.	.	24AA/	.	.	.	.	.	.	.	.	.
.	.	24BB/JJ	.	24B/JJ	.	24B/JJ	.	24B/JJ	.	.	.	.	.	.	.	.	.	24BB/JJ	.	.	.	.	.	.	.	.	.
4r	.	8C\L	.	8c\L	.	8c/L	.	8c/L	.	.	.	8C/	.	.	.	8r	.	8C\L	.	.	.	8r	.	8r	.	.	.
!	!	!LO:TX:a:t=|	!	!LO:TX:a:t=|	!	!	!	!	!	!	!	!	!	!	!	!	!	!LO:TX:a:t=|	!	!	!	!LO:TX:a:t=due	!	!	!	!	!
.	.	8E\J	.	8e\J	.	8e'/J	.	8e'/J	.	.	.	8r	.	.	.	8e/	.	8E\J	.	.	.	8e/	.	8ee\	.	.	.
=2	=2	=2	=2	=2	=2	=2	=2	=2	=2	=2	=2	=2	=2	=2	=2	=2	=2	=2	=2	=2	=2	=2	=2	=2	=2	=2	=2
*	*	*	*	*	*	*	*	*	*	*	*	*	*	*	*	*	*	*	*	*^	*	*	*	*	*	*	*
2.r	.	(16G\LL	.	(16g\LL	.	(16g/LL	.	(16g/LL	.	2.r	.	2.r	.	2.r	.	(16g/LL	.	(16G\LL	.	4r	2ryy	.	16g/LL	.	(16gg\LL	.	2.r	.
.	.	16F#X\	.	16f#X\	.	16f#X/	.	16f#X/	.	.	.	.	.	.	.	16f#X/	.	16F#X\	.	.	.	.	16f#X/	.	16ff#X\	.	.	.
.	.	16G\	.	16g\	.	16g/	.	16g/	.	.	.	.	.	.	.	16g/	.	16G\	.	.	.	.	16g/	.	16gg\	.	.	.
.	.	16A\JJ	.	16a\JJ	.	16a/JJ)	.	16a/JJ)	.	.	.	.	.	.	.	16a/JJ)	.	16A\JJ	.	.	.	.	16a/JJ	.	16aa\JJ)	.	.	.
.	.	4.G\)	.	4.g\)	.	4.g/	.	4.g/	.	.	.	.	.	.	.	4.g/	.	4.G\)	.	4r	.	.	4.g/	.	4.gg\	.	.	.
.	.	.	.	.	.	.	.	.	.	.	.	.	.	.	.	.	.	.	.	8r	8ryy	.	.	.	.	.	.	.
.	.	8E\	.	8e\	.	8e/	.	8e/	.	.	.	.	.	.	.	8e/	.	8E\	.	8ee/	8ee\	.	8e/	.	8ee\	.	.	.
=3	=3	=3	=3	=3	=3	=3	=3	=3	=3	=3	=3	=3	=3	=3	=3	=3	=3	=3	=3	=3	=3	=3	=3	=3	=3	=3	=3	=3
!	!	!LO:TX:a:t=|	!	!LO:TX:a:t=|	!	!	!	!	!	!	!	!	!	!	!	!	!	!LO:TX:a:t=|	!	!	!	!	!LO:TX:b:t=|	!	!LO:TX:a:t=|	!	!	!
2.r	.	8F\L	.	8f\L	.	8f/L	.	8f/L	.	8F\	.	2.r	.	2.r	.	8f/	.	8F\L	.	8ff/	8ff\	.	8f/L	.	8ff\L	.	2.r	.
.	.	(32A\LL	.	(32a\LL	.	(32a/LL	.	(32a/LL	.	8r	.	.	.	.	.	8r	.	(32A\LL	.	8r	8ryy	.	(32a/LL	.	(32aa\LL	.	.	.
.	.	32G\	.	32g\	.	32g/	.	32g/	.	.	.	.	.	.	.	.	.	32G\	.	.	.	.	32g/	.	32gg\	.	.	.
.	.	32F\	.	32f\	.	32f/	.	32f/	.	.	.	.	.	.	.	.	.	32F\	.	.	.	.	32f/	.	32ff\	.	.	.
.	.	32E\JJJ	.	32e\JJJ	.	32e/JJJ	.	32e/JJJ	.	.	.	.	.	.	.	.	.	32E\JJJ	.	.	.	.	32e/JJJ)	.	32ee\JJJ)	.	.	.
.	.	8D\L)	.	8d\L)	.	8d/L)	.	8d/L)	.	8D\	.	.	.	.	.	8dd 8d/	.	8D\L)	.	8dd/	8dd\	.	8d/L	.	8dd\L	.	.	.
.	.	(32F\LL	.	(32f\LL	.	(32f/LL	.	(32f/LL	.	8r	.	.	.	.	.	8r	.	(32F\LL	.	8r	8ryy	.	(32f/LL	.	(32ff\LL	.	.	.
.	.	32E\	.	32e\	.	32e/	.	32e/	.	.	.	.	.	.	.	.	.	32E\	.	.	.	.	32e/	.	32ee\	.	.	.
.	.	32D\	.	32d\	.	32d/	.	32d/	.	.	.	.	.	.	.	.	.	32D\	.	.	.	.	32d/	.	32dd\	.	.	.
.	.	32C\JJJ	.	32c\JJJ	.	32c/JJJ	.	32c/JJJ	.	.	.	.	.	.	.	.	.	32C\JJJ	.	.	.	.	32c/JJJ)	.	32cc\JJJ)	.	.	.
.	.	8BB/L)	.	8B/L)	.	8B/L)	.	8B/L)	.	8BB/	.	.	.	.	.	8b 8B/	.	8BB/L)	.	8b/	8b\	.	8B/L	.	8b\L	.	.	.
.	.	(32D/LL	.	(32d/LL	.	(32d/LL	.	(32d/LL	.	8r	.	.	.	.	.	8r	.	(32D/LL	.	8r	8ryy	.	(32d/LL	.	(32dd\LL	.	.	.
.	.	32C/	.	32c/	.	32c/	.	32c/	.	.	.	.	.	.	.	.	.	32C/	.	.	.	.	32c/	.	32cc\	.	.	.
.	.	32BB/	.	32B/	.	32B/	.	32B/	.	.	.	.	.	.	.	.	.	32BB/	.	.	.	.	32B/	.	32b\	.	.	.
.	.	32AA/JJJ)	.	32A/JJJ)	.	32A/JJJ)	.	32A/JJJ)	.	.	.	.	.	.	.	.	.	32AA/JJJ)	.	.	.	.	32A/JJJ)	.	32a\JJJ)	.	.	.
!!LO:PB:g=original
=4	=4	=4	=4	=4	=4	=4	=4	=4	=4	=4	=4	=4	=4	=4	=4	=4	=4	=4	=4	=4	=4	=4	=4	=4	=4	=4	=4	=4
*	*	*	*	*	*	*	*	*	*	*	*	*	*	*	*	*	*	*	*	*	*	*	*^	*	*	*	*	*
!	!	!	!	!	!	!	!	!	!	!	!	!	!	!	!	!	!	!	!	!	!	!	!	!	!	!LO:TX:t=P:problem:mixed beam	!	!	!
!LO:SIC:s=8C/	!	!	!	!	!	!	!	!	!	!	!	!	!	!	!	!	!	!	!	!	!	!	!	!	!	!	!	!	!
8Re/	.	8GG\L	.	8G\L	.	8G'/L	.	8G'/L	.	8GG/	.	8GG/	.	2.r	.	8g 8G/	.	8GG'/L	.	8g/	8g\	.	8G'/L	4.ryy	.	8g\L	.	4r	.
8r	.	16G\L	.	(16g\L	.	(16g/L	.	(16g/L	.	8r	.	8r	.	.	.	8r	.	(16G/L	.	8r	8ryy	.	(16g/L	.	.	(16gg\L	.	.	.
.	.	16A\JJ	.	16a\JJ	.	16a/JJ	.	16a/JJ	.	.	.	.	.	.	.	.	.	16A/JJ	.	.	.	.	16a/JJ	.	.	16aa\JJ	.	.	.
4r	.	8G\	.	8g\)	.	8g/)	.	8g/)	.	8r	.	2r	.	.	.	8r	.	8G/)	.	8r	2ryy	.	8g/)	.	.	8gg/)	.	8r	.
.	.	8r	.	8r	.	8r	.	8r	.	4G\	.	.	.	.	.	(8g/L	.	(8B/L	.	8gL 8G/	.	.	(8b/L	8g\L	.	(8gg\L	.	(8gg\L	.
4r	.	4r	.	4r	.	4r	.	4r	.	.	.	.	.	.	.	8a 8f#X/	.	8c/	.	8g 8G/	.	.	8cc/	8a\	.	8ff#X\	.	8aa\	.
!!LO:TX:a:Bi:t=[segno]:problem:znak segno na kresce taktowej
.	.	.	.	.	.	.	.	.	.	8GG/	.	.	.	.	.	8bJ 8fn/)	.	8d/J)	.	8gJ 8G/	.	.	8dd/J)	8b\J	.	8ffn\J)	.	8bb\J)	.
=5||	=5||	=5||	=5||	=5||	=5||	=5||	=5||	=5||	=5||	=5||	=5||	=5||	=5||	=5||	=5||	=5||	=5||	=5||	=5||	=5||	=5||	=5||	=5||	=5||	=5||	=5||	=5||	=5||	=5||
2.r	.	4C/	.	8r	.	8r	.	8r	.	8r	.	2.r	.	2.r	.	2.r	.	8c'\L	.	8r	8ryy	.	8cc'/L	8r	.	2.ryy	.	8ccc'\L	.
.	.	.	.	8G/	sf	8c/	.	(8e/	sf	8C^/	.	.	.	.	.	.	.	(16c^\L	.	8ee/	8cc\	.	(16cc/L	8g\	.	.	.	(16ccc\L	.
.	.	.	.	.	.	.	.	.	.	.	.	.	.	.	.	.	.	16e\JJ)	.	.	.	.	16ee/JJ)	.	.	.	.	16eee\JJ)	.
.	.	4r	.	8G/L	p	8c/L	.	8e'/L	p	4r	.	.	.	.	.	.	.	4.G\	.	4r	2ryy	.	4.g/	4rg	.	.	.	4.gg\	.
.	.	.	.	8G/	.	8c/	.	8e'/	.	.	.	.	.	.	.	.	.	.	.	.	.	.	.	.	.	.	.	.	.
.	.	4r	.	8G/	.	8c/	.	8e'/	.	4r	.	.	.	.	.	.	.	.	.	4r	.	.	.	4rg	.	.	.	.	.
.	.	.	.	8G#X/J	.	8c/J	.	8e'/J)	.	.	.	.	.	.	.	.	.	8G#X\	.	.	.	.	8g#X/	.	.	.	.	8gg#X\	.
=6	=6	=6	=6	=6	=6	=6	=6	=6	=6	=6	=6	=6	=6	=6	=6	=6	=6	=6	=6	=6	=6	=6	=6	=6	=6	=6	=6	=6	=6
2.r	.	4F\	.	8r	.	8r	.	8r	.	8r	.	2.r	.	2.r	.	2.r	.	(16A\LL	.	8r	8ryy	.	(16a/LL	8r	.	2.ryy	.	(16aa\LL	.
.	.	.	.	.	.	.	.	.	.	.	.	.	.	.	.	.	.	16G#X\	.	.	.	.	16g#X/	.	.	.	.	16gg#X\	.
.	.	.	.	8A/	.	8d/	.	8f/	sf	8F^\	.	.	.	.	.	.	.	16A\	.	8dd/	8dd\	.	16a/	8f\	.	.	.	16aa\	.
.	.	.	.	.	.	.	.	.	.	.	.	.	.	.	.	.	.	16d\JJ)	.	.	.	.	16dd/JJ)	.	.	.	.	16ddd\JJ)	.
.	.	4r	.	8A/L	.	8d/L	.	8f/L	p	4r	.	.	.	.	.	.	.	4.f\	.	8r	2ryy	.	4.ff/	4r	.	.	.	4.fff\	.
.	.	.	.	8A/	.	8d/	.	8f/	.	.	.	.	.	.	.	.	.	.	.	8r	.	.	.	.	.	.	.	.	.
.	.	4r	.	8A/	.	8d/	.	8f/	.	4r	.	.	.	.	.	.	.	.	.	4r	.	.	.	4r	.	.	.	.	.
.	.	.	.	8A/J	.	8d/J	.	8f/J	.	.	.	.	.	.	.	.	.	8d\	.	.	.	.	8dd/	.	.	.	.	8ddd\	.
*	*	*	*	*	*	*	*	*	*	*	*	*	*	*	*	*	*	*	*	*v	*v	*	*	*	*	*	*	*	*
=7	=7	=7	=7	=7	=7	=7	=7	=7	=7	=7	=7	=7	=7	=7	=7	=7	=7	=7	=7	=7	=7	=7	=7	=7	=7	=7	=7	=7
!	!	!	!	!	!	!	!	!	!	!	!	!	!	!	!	!	!	!	!	!	!	!LO:TX:a:t=|	!	!	!	!	!	!
2.r	.	8G\	.	8r	.	8r	.	8r	.	2.r	.	2.r	.	2.r	.	2.r	.	8B\	.	2.dd 2.g/	.	8b/	2.f\	p	2.ryy	.	8bb\	.
!	!	!	!	!	!	!	!	!	!	!	!	!	!	!	!	!	!	!LO:TX:a:t=|	!	!	!	!LO:TX:a:t=|	!	!	!	!	!LO:TX:a:t=|	!
.	.	8r	.	8G/	.	8d/	.	8f/	.	.	.	.	.	.	.	.	.	4B\	.	.	.	4b/	.	.	.	.	4bb^\	.
.	.	8G\	.	8r	.	8r	.	8r	.	.	.	.	.	.	.	.	.	.	.	.	.	.	.	.	.	.	.	.
.	.	8r	.	8G/	.	8d/	.	8f/	.	.	.	.	.	.	.	.	.	(16d\LL	.	.	.	(16dd/LL	.	.	.	.	(16ddd\LL	.
.	.	.	.	.	.	.	.	.	.	.	.	.	.	.	.	.	.	16c\JJ)	.	.	.	16cc/JJ)	.	.	.	.	16ccc\JJ)	.
.	.	8GG/	.	8r	.	8r	.	8r	.	.	.	.	.	.	.	.	.	16B'\LL	.	.	.	16b'/LL	.	.	.	.	16bb'\LL	.
.	.	.	.	.	.	.	.	.	.	.	.	.	.	.	.	.	.	16A'\	.	.	.	16a'/	.	.	.	.	16aa'\	.
.	.	8r	.	8G/	.	8d/	.	8f/	.	.	.	.	.	.	.	.	.	16G'\	.	.	.	16g'/	.	.	.	.	16gg'\	.
.	.	.	.	.	.	.	.	.	.	.	.	.	.	.	.	.	.	16F'\JJ	.	.	.	16f'/JJ	.	.	.	.	16ff'\JJ	.
!!LO:PB:g=original
=8	=8	=8	=8	=8	=8	=8	=8	=8	=8	=8	=8	=8	=8	=8	=8	=8	=8	=8	=8	=8	=8	=8	=8	=8	=8	=8	=8	=8
2.ryy	.	4C/	.	8r	.	8r	.	8r	.	2.r	.	2.r	.	2.r	.	4r	.	2.ryy	.	2.r	.	(16e/LL	2.r	.	4r	.	(16ee\LL	.
.	.	.	.	.	.	.	.	.	.	.	.	.	.	.	.	.	.	.	.	.	.	16g/	.	.	.	.	16gg\	.
.	.	.	.	8G/	.	8c/	.	8e/	.	.	.	.	.	.	.	.	.	.	.	.	.	16cc/	.	.	.	.	16ccc\	.
.	.	.	.	.	.	.	.	.	.	.	.	.	.	.	.	.	.	.	.	.	.	16ee/JJ	.	.	.	.	16eee\JJ	.
.	.	4r	.	8G/L	.	8c/L	.	8e/L	.	.	.	.	.	.	.	4r	.	.	.	.	.	4.cc/)	.	.	4r	.	4.ccc\)	.
.	.	.	.	8G/	.	8c/	.	8e/	.	.	.	.	.	.	.	.	.	.	.	.	.	.	.	.	.	.	.	.
.	.	4r	.	8G/J	.	8c/J	.	8e/J	.	.	.	.	.	.	.	8r	.	.	.	.	.	.	.	.	8r	.	.	.
.	.	.	.	8r	.	8r	.	8g/	.	.	.	.	.	.	.	8g 8G/	.	.	.	.	.	8r	.	.	8g/	f	8gg\	.
=9	=9	=9	=9	=9	=9	=9	=9	=9	=9	=9	=9	=9	=9	=9	=9	=9	=9	=9	=9	=9	=9	=9	=9	=9	=9	=9	=9	=9
!	!	!	!	!	!	!	!	!	!	!LO:TX:t=P:problem:w taktach 9-11 trombone zapisane na pięciolinii timpani	!	!LO:TX:t=P:problem:w taktach 9-11 timpani zapisane na pięciolinii trombone	!	!	!	!	!	!	!	!	!	!	!	!	!	!	!	!
!LO:SIC:s=4C/	!	!	!	!	!	!	!	!	!	!	!	!	!	!	!	!	!	!	!	!	!	!	!	!	!	!	!	!
4Re/	.	8C/L	f	(16c/LL	.	(16e/LL	f	(16cc\LL	.	2.C/	f	32C/LLL	f	2.r	.	(16ccLL 16c/	.	[2G\	f	2.cc 2.e/	f	2g/	2.e\	f	(16cc\LL	.	(16ccc\LL	.
.	.	.	.	.	.	.	.	.	.	.	.	32C/	.	.	.	.	.	.	.	.	.	.	.	.	.	.	.	.
.	.	.	.	16G/	.	16g/	.	16b\	.	.	.	32C/	.	.	.	16b 16B/	.	.	.	.	.	.	.	.	16b\	.	16bb\	.
.	.	.	.	.	.	.	.	.	.	.	.	32C/	.	.	.	.	.	.	.	.	.	.	.	.	.	.	.	.
.	.	8C/	.	16c/	.	16e/	.	16cc\	.	.	.	32C/	.	.	.	16cc 16c/	.	.	.	.	.	.	.	.	16cc\	.	16ccc\	.
.	.	.	.	.	.	.	.	.	.	.	.	32C/	.	.	.	.	.	.	.	.	.	.	.	.	.	.	.	.
.	.	.	.	16G/JJ)	.	16g/JJ)	.	16dd\JJ	.	.	.	32C/	.	.	.	16ddJJ 16d/	.	.	.	.	.	.	.	.	16dd\JJ	.	16ddd\JJ	.
.	.	.	.	.	.	.	.	.	.	.	.	32C/JJJ	.	.	.	.	.	.	.	.	.	.	.	.	.	.	.	.
!LO:SIC:s=4C/	!	!	!	!	!	!	!	!	!	!	!	!	!	!	!	!	!	!	!	!	!	!	!	!	!	!	!	!
4Re/	.	8C/	.	(16c/LL	.	(16e/LL	.	8ee\L)	.	.	.	4C/	.	.	.	8eeL 8e/)	.	.	.	.	.	.	.	.	8ee\L)	.	8eee\L)	.
.	.	.	.	16G/	.	16g/	.	.	.	.	.	.	.	.	.	.	.	.	.	.	.	.	.	.	.	.	.	.
.	.	8C/	.	16c/	.	16e/	.	(8b\	.	.	.	.	.	.	.	(8b 8B/	.	.	.	.	.	.	.	.	(8b\	.	(8bb\	.
.	.	.	.	16G/JJ)	.	16g/JJ)	.	.	.	.	.	.	.	.	.	.	.	.	.	.	.	.	.	.	.	.	.	.
!LO:SIC:s=4C/	!	!	!	!	!	!	!	!	!	!	!	!	!	!	!	!	!	!	!	!	!	!	!	!	!	!	!	!
4Re/	.	8C/	.	(16c/LL	.	(16e/LL	.	8cc\J)	.	.	.	4C/	.	.	.	8cc 8c/)	.	8G\L]	.	.	.	8g/L	.	.	8cc\)	.	8ccc\)	.
.	.	.	.	16G/	.	16g/	.	.	.	.	.	.	.	.	.	.	.	.	.	.	.	.	.	.	.	.	.	.
.	.	8C/J	.	16c/	.	16e/	.	(8g#X/	.	.	.	.	.	.	.	(8g#XJ 8G#X/	.	8G#X\J	.	.	.	8g#X/J	.	.	(8g#X\J	.	(8gg#X\J	.
.	.	.	.	16G#X/JJ)	.	16g#X/JJ)	.	.	.	.	.	.	.	.	.	.	.	.	.	.	.	.	.	.	.	.	.	.
=10	=10	=10	=10	=10	=10	=10	=10	=10	=10	=10	=10	=10	=10	=10	=10	=10	=10	=10	=10	=10	=10	=10	=10	=10	=10	=10	=10	=10
*	*	*	*	*	*	*	*	*	*	*	*	*	*	*	*	*	*	*	*	*^	*	*	*	*	*	*	*	*
!LO:SIC:s=4C/	!	!	!	!	!	!	!	!	!	!	!	!	!	!	!	!	!	!	!	!	!	!	!	!	!	!	!	!	!
4Re/	.	8F\L	.	(16d/LL	.	(16f/LL	.	(16a/LL)	.	8GG/L	.	4r	.	2.r	.	(16aLL 16A/)	.	[2A\	.	2dd/	2dd\	.	2a/	2f\	.	16a/LL)	.	16aa\LL	.
.	.	.	.	16A/	.	16a/	.	16g#X/	.	.	.	.	.	.	.	16g#X 16G#X/	.	.	.	.	.	.	.	.	.	(16g#X/	.	16gg#X\	.
.	.	8F\	.	16d/	.	16f/	.	16a/	.	8F/J	.	.	.	.	.	16a 16A/	.	.	.	.	.	.	.	.	.	16a/	.	16aa\	.
.	.	.	.	16A/JJ)	.	16a/JJ)	.	16dd/JJ	.	.	.	.	.	.	.	16ddJJ 16d/	.	.	.	.	.	.	.	.	.	16dd/JJ	.	16ddd\JJ	.
4r	.	8F\	.	(16d/LL	.	(16f/LL	.	4.ff\)	.	4F\	.	4r	.	.	.	4.ff 4.f/)	.	.	.	.	.	.	.	.	.	4.ff\)	.	4.fff\)	.
.	.	.	.	16A/	.	16a/	.	.	.	.	.	.	.	.	.	.	.	.	.	.	.	.	.	.	.	.	.	.	.
.	.	8F\J	.	16d/	.	16f/	.	.	.	.	.	.	.	.	.	.	.	.	.	.	.	.	.	.	.	.	.	.	.
.	.	.	.	16A/JJ)	.	16a/JJ)	.	.	.	.	.	.	.	.	.	.	.	.	.	.	.	.	.	.	.	.	.	.	.
8r	.	8F\L	.	(16d/LL	.	(16f/LL	.	.	.	8F\L	.	8r	.	.	.	.	.	8A\L]	.	8dd/L	8dd\L	.	8a/L	8f\L	.	.	.	.	.
.	.	.	.	16A/	.	16a/	.	.	.	.	.	.	.	.	.	.	.	.	.	.	.	.	.	.	.	.	.	.	.
!LO:SIC:s=8C/	!	!	!	!	!	!	!	!	!	!	!	!	!	!	!	!	!	!	!	!	!	!	!	!	!	!	!	!	!
8Re/	.	8F#X^\J	.	16c/	.	16d#X^/	.	8aa\	.	8F#X\J	.	8C/	.	.	.	8dd#X 8a^/	.	8A^\J	.	8dd#X/J	8cc\J	.	8cc/J	8d#X\J	.	8dd#X^\	.	8aa\	.
.	.	.	.	16A^/JJ)	.	16a/JJ)	.	.	.	.	.	.	.	.	.	.	.	.	.	.	.	.	.	.	.	.	.	.	.
*	*	*	*	*	*	*	*	*	*	*	*	*	*	*	*	*	*	*	*	*	*	*	*v	*v	*	*	*	*	*
=11	=11	=11	=11	=11	=11	=11	=11	=11	=11	=11	=11	=11	=11	=11	=11	=11	=11	=11	=11	=11	=11	=11	=11	=11	=11	=11	=11	=11
!	!	!	!	!	!	!LO:TX:a:t=8vab.	!	!	!	!	!	!	!	!	!	!	!	!	!	!	!	!	!	!	!	!	!	!
!LO:SIC:s=4C/	!	!	!	!	!	!	!	!	!	!	!	!	!	!	!	!	!	!	!	!	!	!	!	!	!	!	!	!
4Re/	.	8G\L	.	(16e\LL	.	(16g/LL	.	(16gg\LL	.	8G\	.	8GG/	.	2.r	.	(16eeLL 16g/	.	8G\	.	8ee/	8cc\	.	(16gLL 16e/	.	(16ee\LL	.	(16gg\LL	.
.	.	.	.	16g\)	.	16cc/)	.	16ccc\)	.	.	.	.	.	.	.	16cc 16e/)	.	.	.	.	.	.	16cc 16g/)	.	16gg\)	.	16ccc\)	.
.	.	8G\	.	(16g\	.	(16cc/	.	(16ccc\	.	8r	.	8r	.	.	.	(16cc 16e/	.	8r	.	8r	8ryy	.	(16cc 16g/	.	(16gg\	.	(16ccc\	.
.	.	.	.	16e\JJ)	.	16g/JJ)	.	16gg\JJ)	.	.	.	.	.	.	.	16gJJ 16e/)	.	.	.	.	.	.	16gJJ 16e/)	.	16ee\JJ)	.	16gg\JJ)	.
!LO:SIC:s=4C/	!	!	!	!	!	!	!	!	!	!	!	!	!	!	!	!	!	!	!	!	!	!	!	!	!	!	!	!
4Re/	.	8G\	.	(16e\LL	.	(16g\LL	.	(16gg\LL	.	8G\	.	8GG/	.	.	.	(16gLL 16e/	.	8G\	.	2r	2ryy	.	(16gLL 16e/	.	(16ee\LL	.	(16gg\LL	.
.	.	.	.	16cc\)	.	16ee\)	.	16eee\)	.	.	.	.	.	.	.	16ee 16cc/)	.	.	.	.	.	.	16ee 16cc/)	.	16ccc\)	.	16eee\)	.
.	.	8G\J	.	(16cc\	.	(16ee\	.	(16eee\	.	8r	.	8r	.	.	.	(16ee 16cc/	.	8r	.	.	.	.	(16ee 16cc/	.	(16ccc\	.	(16eee\	.
.	.	.	.	16g\JJ)	.	16cc\JJ)	.	16ccc\JJ)	.	.	.	.	.	.	.	16ccJJ 16g/)	.	.	.	.	.	.	16ccJJ 16g/)	.	16gg\JJ)	.	16ccc\JJ)	.
!LO:SIC:s=4C/	!	!	!	!	!	!	!	!	!	!	!	!	!	!	!	!	!	!	!	!	!	!	!	!	!	!	!	!
4Re/	.	8GG/L	.	(16g\LL	.	(16cc/LL	.	(16ccc\LL	.	8G\	.	8GG/	.	.	.	(16ccLL 16g/	.	8G\	.	.	.	.	(16ccLL 16g/	.	(16gg\LL	.	(16ccc\LL	.
.	.	.	.	16e\)	.	16g/)	.	16gg\)	.	.	.	.	.	.	.	16g 16e/)	.	.	.	.	.	.	16g 16e/)	.	16ee\)	.	16gg\)	.
.	.	8GG/J	.	(16e\	.	(16g/	.	(16gg\	.	8r	.	8r	.	.	.	(16g 16e/	.	8r	.	.	.	.	(16g 16e/	.	(16ee\	.	(16gg\	.
.	.	.	.	16c\JJ)	.	16e/JJ)	.	16ee\JJ)	.	.	.	.	.	.	.	16eJJ 16c/)	.	.	.	.	.	.	16eJJ 16c/)	.	16cc\JJ)	.	16ee\JJ)	.
!!LO:PB:g=original
*	*	*	*	*	*	*	*	*	*	*	*	*	*	*	*	*	*	*	*	*v	*v	*	*	*	*	*	*	*
=12	=12	=12	=12	=12	=12	=12	=12	=12	=12	=12	=12	=12	=12	=12	=12	=12	=12	=12	=12	=12	=12	=12	=12	=12	=12	=12	=12
*	*	*	*	*	*	*	*	*	*	*	*	*	*	*	*	*^	*	*	*	*	*	*^	*	*	*	*	*
2.ryy	.	8GG/	.	8d 8B\	.	8f 8G/	.	(16aa\LL	.	8GG/	.	8GG/	.	2.r	.	16a/LL	8d\L	.	8G\	.	8ff 8dd\	.	(16a/LL	8B\	.	(16aa\LL	.	(16aa\LL	.
.	.	.	.	.	.	.	.	16gg\	.	.	.	.	.	.	.	16g/	.	.	.	.	.	.	16g/	.	.	16gg\	.	16gg\	.
.	.	8r	.	8r	.	8r	.	16ff\)	.	8r	.	8r	.	.	.	16f/	16ryy	.	8r	.	8r	.	16f/)	8r	.	16ff\)	.	16ff\)	.
.	.	.	.	.	.	.	.	32r	.	.	.	.	.	.	.	32r	32ryy	.	.	.	.	.	32r	.	.	32r	.	32r	.
!	!	!	!	!	!	!	!	!LO:TX:a:t=|	!	!	!	!	!	!	!	!	!	!	!	!	!	!	!LO:TX:a:t=|	!	!	!LO:TX:a:t=|	!	!LO:TX:a:t=|	!
.	.	.	.	.	.	.	.	32b\JJk	.	.	.	.	.	.	.	32b/JJk	32f\Jkk	.	.	.	.	.	32f/JJk	.	.	32b\JJk	.	32bb\JJk	.
.	.	8r	.	8r	.	8r	.	(4dd\	.	8r	.	8r	.	.	.	(4b/	(4f\	.	8r	.	(4dd (4g/	.	(4f/	4B\	.	(4dd\	.	(4ddd\	.
.	.	8GG/L	.	8B/L	.	8fL 8G/	.	.	.	8GG/L	.	8GG/L	.	.	.	.	.	.	8G\L	.	.	.	.	.	.	.	.	.	.
.	.	8C/J	.	8c/J	.	8eJ 8G/	.	8cc\)	.	8C/J	.	8C/J	.	.	.	8cc/)	8e\)	.	8c\J	.	8cc 8e/))	.	8e/)	8c\	.	8cc\)	.	8ccc\)	.
.	.	8r	.	8r	.	8r	.	8r	.	8r	.	8r	.	.	.	8r	8ryy	.	8r	.	8r	.	8r	8ryy	.	8r	.	8r	.
*	*	*	*	*	*	*	*	*	*	*	*	*	*	*	*	*v	*v	*	*	*	*	*	*v	*v	*	*	*	*	*
=13:|!	=13:|!	=13:|!	=13:|!	=13:|!	=13:|!	=13:|!	=13:|!	=13:|!	=13:|!	=13:|!	=13:|!	=13:|!	=13:|!	=13:|!	=13:|!	=13:|!	=13:|!	=13:|!	=13:|!	=13:|!	=13:|!	=13:|!	=13:|!	=13:|!	=13:|!	=13:|!	=13:|!
!	!	!	!	!	!	!	!	!	!	!	!	!	!	!	!	!	!	!	!	!	!	!	!	!LO:TX:a:t=Col V°.1°.	!	!LO:TX:a:t=Col V°.1°. 8va	!
2.ryy	.	4E\	mf	8r	.	8r	mf	(16ff\LL	.	(2E\	mf	2.r	.	2.r	.	8r	.	(2E\	.	2.ee 2.e/	.	2.g#X 2.B/	mf	(16ff\LL	.	(16fff\LL	.
.	.	.	.	.	.	.	.	16ee\	.	.	.	.	.	.	.	.	.	.	.	.	.	.	.	16ee\	.	16eee\	.
.	.	.	.	8e\L	.	8g#XL 8B/	.	16dd\	.	.	.	.	.	.	.	16eeLL 16e/	.	.	.	.	.	.	.	16dd\	.	16ddd\	.
.	.	.	.	.	.	.	.	16b\JJ)	.	.	.	.	.	.	.	16eeJJ 16e/	.	.	.	.	.	.	.	16b\JJ)	.	16bb\JJ)	.
.	.	4r	.	8e\	.	8g# 8B/	.	4.g#X/	.	.	.	.	.	.	.	8ee 8e/	.	.	.	.	.	.	.	4.g#X/	.	4.gg#X\	.
.	.	.	.	8e\J	.	8g#J 8B/	.	.	.	.	.	.	.	.	.	8r	.	.	.	.	.	.	.	.	.	.	.
.	.	4D\	.	8r	.	8r	.	.	.	4D\)	.	.	.	.	.	4r	.	4D\)	.	.	.	.	.	.	.	.	.
.	.	.	.	8e\	.	8g# 8B/	.	8b/	.	.	.	.	.	.	.	.	.	.	.	.	.	.	.	8b/	.	8bb\	.
=14	=14	=14	=14	=14	=14	=14	=14	=14	=14	=14	=14	=14	=14	=14	=14	=14	=14	=14	=14	=14	=14	=14	=14	=14	=14	=14	=14
2.ryy	.	8C/	.	8r	.	8r	.	8a'/L	.	4C/	.	2.r	.	2.r	.	2.r	.	8C/	.	2.ee 2.e/	.	2.a 2.c/	.	8a'/L	.	8aa'\L	.
.	.	8r	.	8e\	.	8a 8c/	.	(32a/LL	.	.	.	.	.	.	.	.	.	8r	.	.	.	.	.	(32a/LL	.	(32aa\LL	.
.	.	.	.	.	.	.	.	32g#X/	.	.	.	.	.	.	.	.	.	.	.	.	.	.	.	32g#X/	.	32gg#X\	.
.	.	.	.	.	.	.	.	32a/	.	.	.	.	.	.	.	.	.	.	.	.	.	.	.	32a/	.	32aa\	.
.	.	.	.	.	.	.	.	32b/JJJ	.	.	.	.	.	.	.	.	.	.	.	.	.	.	.	32b/JJJ	.	32bb\JJJ	.
.	.	8AA/	.	8r	.	8r	.	8cc\L)	.	4r	.	.	.	.	.	.	.	8AA/	.	.	.	.	.	8cc\L)	.	8ccc\L)	.
.	.	8r	.	8e\	.	8a 8c/	.	(32cc\LL	.	.	.	.	.	.	.	.	.	8r	.	.	.	.	.	(32cc\LL	.	(32ccc\LL	.
.	.	.	.	.	.	.	.	32b\	.	.	.	.	.	.	.	.	.	.	.	.	.	.	.	32b\	.	32bb\	.
.	.	.	.	.	.	.	.	32cc\	.	.	.	.	.	.	.	.	.	.	.	.	.	.	.	32cc\	.	32ccc\	.
.	.	.	.	.	.	.	.	32dd\JJJ	.	.	.	.	.	.	.	.	.	.	.	.	.	.	.	32dd\JJJ	.	32ddd\JJJ	.
.	.	8C/	.	8r	.	8r	.	8ee\L)	.	4r	.	.	.	.	.	.	.	8C/	.	.	.	.	.	8ee\L)	.	8eee\L)	.
.	.	8r	.	8e\	.	8a 8c/	.	8a\J	.	.	.	.	.	.	.	.	.	8r	.	.	.	.	.	8a\J	.	8aa\J	.
=15	=15	=15	=15	=15	=15	=15	=15	=15	=15	=15	=15	=15	=15	=15	=15	=15	=15	=15	=15	=15	=15	=15	=15	=15	=15	=15	=15
*	*	*	*	*	*	*	*	*	*	*	*	*	*	*	*	*	*	*	*	*^	*	*	*	*	*	*	*
2.ryy	.	4D/	.	8r	.	8r	.	(16ee\LL	.	(2D/	.	2.r	.	2.r	.	8r	.	(2D\	.	2.dd/	2.dd\	.	2.f#X 2.A/	.	(16ee\LL	.	(16eee\LL	.
.	.	.	.	.	.	.	.	16dd\	.	.	.	.	.	.	.	.	.	.	.	.	.	.	.	.	16dd\	.	16ddd\	.
.	.	.	.	8d\L	.	8f#XL 8A/	.	16cc\	.	.	.	.	.	.	.	16ddLL 16d/	.	.	.	.	.	.	.	.	16cc\	.	16ccc\	.
.	.	.	.	.	.	.	.	16a\JJ)	.	.	.	.	.	.	.	16ddJ 16d/	.	.	.	.	.	.	.	.	16a\JJ)	.	16aa\JJ)	.
.	.	4r	.	8d\	.	8f# 8A/	.	4.f#X/	.	.	.	.	.	.	.	8ddJ 8d/	.	.	.	.	.	.	.	.	4.f#X/	.	4.ff#X\	.
.	.	.	.	8d\J	.	8f#J 8A/	.	.	.	.	.	.	.	.	.	8r	.	.	.	.	.	.	.	.	.	.	.	.
.	.	4C/	.	8r	.	8r	.	.	.	4C/)	.	.	.	.	.	4r	.	4C/)	.	.	.	.	.	.	.	.	.	.
.	.	.	.	8d\	.	8f# 8A/	.	8a/	.	.	.	.	.	.	.	.	.	.	.	.	.	.	.	.	8a/	.	8aa\	.
!!LO:PB:g=original
*	*	*	*	*	*	*	*	*	*	*	*	*	*	*	*	*	*	*	*	*v	*v	*	*	*	*	*	*	*
=16	=16	=16	=16	=16	=16	=16	=16	=16	=16	=16	=16	=16	=16	=16	=16	=16	=16	=16	=16	=16	=16	=16	=16	=16	=16	=16	=16
!	!	!	!	!	!	!	!	!LO:TX:b:t=|	!	!	!	!	!	!	!	!	!	!	!	!	!	!	!	!LO:TX:b:t=|	!	!LO:TX:b:t=|	!
2.r	.	8BB/	.	8r	.	8r	.	8g/L	.	4BB/	.	2.r	.	2.r	.	8r	.	8BB/	.	[2dd [2g/	.	[2g [2B/	.	8g/L	.	8gg\L	.
.	.	8r	.	8d 8G/	.	8g 8B/	.	(32g/LL	.	.	.	.	.	.	.	16ddLL 16d/	.	8r	.	.	.	.	.	(32g/LL	.	(32gg\LL	.
.	.	.	.	.	.	.	.	32f#X/	.	.	.	.	.	.	.	.	.	.	.	.	.	.	.	32f#X/	.	32ff#X\	.
.	.	.	.	.	.	.	.	32g/	.	.	.	.	.	.	.	16ddJ 16d/	.	.	.	.	.	.	.	32g/	.	32gg\	.
.	.	.	.	.	.	.	.	32a/JJJ	.	.	.	.	.	.	.	.	.	.	.	.	.	.	.	32a/JJJ	.	32aa\JJJ	.
.	.	8GG/	.	8r	.	8r	.	8b\L)	.	4r	.	.	.	.	.	8ddJ 8d/	.	8GG/	.	.	.	.	.	8b\L)	.	8bb\L)	.
.	.	8r	.	8d 8G/	.	8g 8B/	.	(32b\LL	.	.	.	.	.	.	.	8r	.	8r	.	.	.	.	.	(32b\LL	.	(32bb\LL	.
.	.	.	.	.	.	.	.	32a#X\	.	.	.	.	.	.	.	.	.	.	.	.	.	.	.	32a#X\	.	32aa#X\	.
.	.	.	.	.	.	.	.	32b\	.	.	.	.	.	.	.	.	.	.	.	.	.	.	.	32b\	.	32bb\	.
.	.	.	.	.	.	.	.	32cc\JJJ	.	.	.	.	.	.	.	.	.	.	.	.	.	.	.	32cc\JJJ	.	32ccc\JJJ	.
.	.	8BB/	.	8r	.	8r	.	8dd\L)	.	4r	.	.	.	.	.	4r	.	8BB/	.	8dd] 8g/]	.	8g] 8B/]	.	8dd\L)	.	8ddd\L)	.
.	.	8r	.	8d 8G/	.	8g 8B/	.	8g'\J	.	.	.	.	.	.	.	.	.	8r	.	8r	.	8r	.	8g'\J	.	8gg'\J	.
=17	=17	=17	=17	=17	=17	=17	=17	=17	=17	=17	=17	=17	=17	=17	=17	=17	=17	=17	=17	=17	=17	=17	=17	=17	=17	=17	=17
*	*	*	*	*	*	*	*	*	*	*	*	*	*	*	*	*^	*	*	*	*^	*	*^	*	*	*	*	*
2.r	.	4GG/	.	8r	.	8r	.	4r	.	2.r	.	2.r	.	2.r	.	(16a/LL	2.r	.	(16a/LL	.	2.ff/	2.dd\	p	(16aa/LL	2.r	.	4r	.	4r	.
.	.	.	.	.	.	.	.	.	.	.	.	.	.	.	.	16g/	.	.	16g/	.	.	.	.	16gg/	.	.	.	.	.	.
.	.	.	.	8d\	.	8f 8G/	.	.	.	.	.	.	.	.	.	16f/	.	.	16f/	.	.	.	.	16ff/	.	.	.	.	.	.
.	.	.	.	.	.	.	.	.	.	.	.	.	.	.	.	16d/JJ	.	.	16d/JJ	.	.	.	.	16dd/JJ	.	.	.	.	.	.
.	.	4r	.	8d\L	.	8fL 8G/	.	8r	.	.	.	.	.	.	.	4.B/)	.	.	4.B/)	.	.	.	.	4.b/)	.	.	8r	.	8r	.
.	.	.	.	8d\	.	8f 8G/	.	(32dd\LLL	.	.	.	.	.	.	.	.	.	.	.	.	.	.	.	.	.	.	(32dd\LLL	.	(32ddd\LLL	.
.	.	.	.	.	.	.	.	32cc#X\	.	.	.	.	.	.	.	.	.	.	.	.	.	.	.	.	.	.	32cc#X\	.	32ccc#X\	.
.	.	.	.	.	.	.	.	32dd\	.	.	.	.	.	.	.	.	.	.	.	.	.	.	.	.	.	.	32dd\	.	32ddd\	.
.	.	.	.	.	.	.	.	32ee\JJJ	.	.	.	.	.	.	.	.	.	.	.	.	.	.	.	.	.	.	32ee\JJJ	.	32eee\JJJ	.
.	.	4r	.	8d\	.	8f 8G/	.	8ff\)	.	.	.	.	.	.	.	.	.	.	.	.	.	.	.	.	.	.	8ff\)	.	8fff\)	.
.	.	.	.	8d\J	.	8fJ 8G/	.	8r	.	.	.	.	.	.	.	8d/	.	.	8d/	.	.	.	.	8dd/	.	.	8r	.	8r	.
=18	=18	=18	=18	=18	=18	=18	=18	=18	=18	=18	=18	=18	=18	=18	=18	=18	=18	=18	=18	=18	=18	=18	=18	=18	=18	=18	=18	=18	=18	=18
2.r	.	4C/	.	8r	.	8r	.	4r	.	2.r	.	2.r	.	2.r	.	(16a/LL	2.r	.	(16a/LL	.	2.ee/	2.cc\	.	(16aa/LL	2.r	.	4r	.	4r	.
.	.	.	.	.	.	.	.	.	.	.	.	.	.	.	.	16g/	.	.	16g/	.	.	.	.	16gg/	.	.	.	.	.	.
.	.	.	.	8c\	.	8e 8G/	.	.	.	.	.	.	.	.	.	16e/	.	.	16e/	.	.	.	.	16ee/	.	.	.	.	.	.
.	.	.	.	.	.	.	.	.	.	.	.	.	.	.	.	16c/JJ	.	.	16c/JJ	.	.	.	.	16cc/JJ	.	.	.	.	.	.
.	.	4r	.	8c\L	.	8eL 8G/	.	8r	.	.	.	.	.	.	.	4.G/)	.	.	4.G/)	.	.	.	.	4.g/)	.	.	8r	.	8r	.
.	.	.	.	8c\	.	8e 8G/	.	(32cc\LLL	.	.	.	.	.	.	.	.	.	.	.	.	.	.	.	.	.	.	(32cc\LLL	.	(32ccc\LLL	.
.	.	.	.	.	.	.	.	32b\	.	.	.	.	.	.	.	.	.	.	.	.	.	.	.	.	.	.	32b\	.	32bb\	.
.	.	.	.	.	.	.	.	32cc\	.	.	.	.	.	.	.	.	.	.	.	.	.	.	.	.	.	.	32cc\	.	32ccc\	.
.	.	.	.	.	.	.	.	32dd\JJJ	.	.	.	.	.	.	.	.	.	.	.	.	.	.	.	.	.	.	32dd\JJJ	.	32ddd\JJJ	.
.	.	4r	.	8c\	.	8e 8G/	.	8ee\L)	.	.	.	.	.	.	.	.	.	.	.	.	.	.	.	.	.	.	8ee\L)	.	8eee\L)	.
.	.	.	.	8c\J	.	8eJ 8G/	.	(32cc\LL	.	.	.	.	.	.	.	8c/	.	.	8c/	.	.	.	.	8cc/	.	.	(32cc\LL	.	(32ccc\LL	.
.	.	.	.	.	.	.	.	32b\	.	.	.	.	.	.	.	.	.	.	.	.	.	.	.	.	.	.	32b\	.	32bb\	.
.	.	.	.	.	.	.	.	32cc\	.	.	.	.	.	.	.	.	.	.	.	.	.	.	.	.	.	.	32cc\	.	32ccc\	.
.	.	.	.	.	.	.	.	32dd\JJJ	.	.	.	.	.	.	.	.	.	.	.	.	.	.	.	.	.	.	32dd\JJJ	.	32ddd\JJJ	.
*	*	*	*	*	*	*	*	*	*	*	*	*	*	*	*	*v	*v	*	*	*	*	*	*	*v	*v	*	*	*	*	*
=19	=19	=19	=19	=19	=19	=19	=19	=19	=19	=19	=19	=19	=19	=19	=19	=19	=19	=19	=19	=19	=19	=19	=19	=19	=19	=19	=19	=19
!LO:SIC:s=4C\	!	!	!	!	!	!	!	!	!	!	!	!	!	!	!	!	!	!	!	!	!	!	!	!	!	!	!	!
4Re\	.	8AA-X/L	<	8A-X/L	.	8c/L	<	8ee-X\L)	<	2.AA-X/	<[	2.CT/	.	2.r	.	4r	.	2.A-X/	<[	[2ee-X/	[2cc\	<	2.cc 2.c/	.	8ee-X\L)	<	8eee-X\L)	<
.	.	8AA-/	[	8A-/	.	8c/	[	(32cc\LL	[	.	.	.	.	.	.	.	.	.	.	.	.	.	.	.	(32cc\LL	[	(32ccc\LL	[
.	.	.	.	.	.	.	.	32b\	.	.	.	.	.	.	.	.	.	.	.	.	.	.	.	.	32b\	.	32bb\	.
.	.	.	.	.	.	.	.	32cc\	.	.	.	.	.	.	.	.	.	.	.	.	.	.	.	.	32cc\	.	32ccc\	.
.	.	.	.	.	.	.	.	32dd\JJJ	.	.	.	.	.	.	.	.	.	.	.	.	.	.	.	.	32dd\JJJ	.	32ddd\JJJ	.
!LO:SIC:s=4C\	!	!	!	!	!	!	!	!	!	!	!	!	!	!	!	!	!	!	!	!	!	!	!	!	!	!	!	!
4Re\	.	8AA-/	.	8A-/	.	8c/	.	16ee-\LL)	.	.	.	.	.	.	.	16r	<	.	.	.	.	.	.	.	16ee-\LL)	.	16eee-\LL)	.
.	.	.	.	.	.	.	.	(16b\	.	.	.	.	.	.	.	(16B/LL	[	.	.	.	.	.	.	.	(16b\	.	(16bb\	.
.	.	8AA-/	.	8A-/	.	8c/	.	16cc\	.	.	.	.	.	.	.	16c/	.	.	.	.	.	.	.	.	16cc\	.	16ccc\	.
.	.	.	.	.	.	.	.	16dd\JJ	.	.	.	.	.	.	.	16d/JJ	.	.	.	.	.	.	.	.	16dd\JJ	.	16ddd\JJ	.
!LO:SIC:s=4C\	!	!	!	!	!	!	!	!	!	!	!	!	!	!	!	!	!	!	!	!	!	!	!	!	!	!	!	!
4Re\	.	8AA-/	.	8A-/	.	8c/	.	16ee-X\LL	.	.	.	.	.	.	.	16e-X/LL	.	.	.	8ee-/L]	4cc\]	[	.	.	16ee-X\LL	.	16eee-X\LL	.
.	.	.	.	.	.	.	.	16een\	.	.	.	.	.	.	.	16en/	.	.	.	.	.	.	.	.	16een\	.	16eeen\	.
.	.	8AA-/J	.	8A-/J	.	8c/J	.	16ff\	.	.	.	.	.	.	.	16f/	.	.	.	8dd/J	.	.	.	.	16ff\	.	16fff\	.
.	.	.	.	.	.	.	.	16ff#X\JJ)	.	.	.	.	.	.	.	16f#X/JJ)	.	.	.	.	.	.	.	.	16ff#X\JJ)	.	16fff#X\JJ)	.
!!LO:PB:g=original
*	*	*	*	*	*	*	*	*	*	*	*	*	*	*	*	*	*	*	*	*v	*v	*	*	*	*	*	*	*
=20	=20	=20	=20	=20	=20	=20	=20	=20	=20	=20	=20	=20	=20	=20	=20	=20	=20	=20	=20	=20	=20	=20	=20	=20	=20	=20	=20
*	*	*	*	*	*	*	*	*	*	*	*	*	*	*	*	*^	*	*	*	*	*	*^	*	*	*	*	*
!LO:SIC:s=8C/	!	!	!	!	!	!	!	!	!	!	!	!	!	!	!	!	!	!	!	!	!	!	!	!	!	!	!	!	!
8Re/	.	8GG/	f	8d 8G/	f	8d 8B/	.	8gg\L	f	8GG/	.	8GG/	.	2.r	.	8g/	8g\	.	8G/L	.	8dd 8g/	.	8bL 8d/	2ryy	.	8gg\L	.	8gggL 8gg\	.
8r	.	(32D/LLL	.	(32d/LLL	.	(32dd/LLL	.	(32ddd\LL	.	8r	.	8r	.	.	.	8r	8ryy	.	(32d/LL	.	8r	.	(32dd/LL	.	.	(32ddd\LL	.	(32ddd\LL	.
.	.	32C/	.	32c/	.	32cc/	.	32ccc\	.	.	.	.	.	.	.	.	.	.	32c/	.	.	.	32cc/	.	.	32ccc\	.	32ccc\	.
.	.	32BB/	.	32B/	.	32b/	.	32bb\	.	.	.	.	.	.	.	.	.	.	32B/	.	.	.	32b/	.	.	32bb\	.	32bb\	.
.	.	32AA/JJJ	.	32A/JJJ)	.	32a/JJJ	.	32aa\JJJ	.	.	.	.	.	.	.	.	.	.	32A/JJJ	.	.	.	32a/JJJ	.	.	32aa\JJJ	.	32aa\JJJ	.
4r	.	8GG/)	.	8G/	.	8g/)	.	8gg\)	.	4r	.	4r	.	.	.	4r	2ryy	.	8G/)	.	8r	.	8g/)	.	.	8gg\)	.	8gg\)	.
.	.	8r	.	8r	.	8r	.	8r	.	.	.	.	.	.	.	.	.	.	8r	.	(8ffL 8dd\	.	8r	.	.	8r	.	8r	.
4r	.	4r	.	4r	.	4r	.	4r	.	4r	.	4r	.	.	.	4r	.	.	8r	.	8ee 8cc\	.	8r	4r	.	4r	.	8r	.
!!LO:TX:b:Bi:t=d'al segno al fine\ne poi la Trio
!!LO:TX:a:Bi:t=[segno]:problem:znak segno na kresce taktowej
.	.	.	.	.	.	.	.	.	.	.	.	.	.	.	.	.	.	.	8r	.	8ddJ 8g\)	.	8g/	.	.	.	.	8gg\	.
!!LO:PB:g=original
*	*	*	*	*	*	*	*	*	*	*	*	*	*	*	*	*v	*v	*	*	*	*	*	*v	*v	*	*	*	*	*
=21||	=21||	=21||	=21||	=21||	=21||	=21||	=21||	=21||	=21||	=21||	=21||	=21||	=21||	=21||	=21||	=21||	=21||	=21||	=21||	=21||	=21||	=21||	=21||	=21||	=21||	=21||	=21||
*k[f#]	*	*k[f#]	*	*k[f#]	*	*k[f#]	*	*k[f#]	*	*k[f#]	*	*k[f#]	*	*k[f#]	*	*k[f#]	*	*k[f#]	*	*k[f#]	*	*k[f#]	*	*k[f#]	*	*k[f#]	*
*M3/4	*	*M3/4	*	*M3/4	*	*M3/4	*	*M3/4	*	*M3/4	*	*M3/4	*	*M3/4	*	*M3/4	*	*M3/4	*	*M3/4	*	*M3/4	*	*M3/4	*	*M3/4	*
2.ryy	.	8E\L	sfp	8e\L	sfp	8gL 8B/	sfp	8ee 8b 8e\	f	2.r	.	2.r	.	8ee\L	fp	2.r	.	2.r	.	2.r	.	2.r	.	2.r	.	2.r	.
.	.	16E\L	.	16e\L	.	16gL 16B/	.	8r	.	.	.	.	.	16ee\L	.	.	.	.	.	.	.	.	.	.	.	.	.
.	.	16E\JJ	.	16e\JJ	.	16gJJ 16B/	.	.	.	.	.	.	.	16ee\JJ	.	.	.	.	.	.	.	.	.	.	.	.	.
.	.	8E\L	.	8e\L	.	8gL 8B/	.	4r	.	.	.	.	.	8ee\L	.	.	.	.	.	.	.	.	.	.	.	.	.
.	.	8E\	.	8e\	.	8g 8B/	.	.	.	.	.	.	.	8ee\	.	.	.	.	.	.	.	.	.	.	.	.	.
.	.	8E\	.	8e\	.	8g 8B/	.	4r	.	.	.	.	.	8ee\	.	.	.	.	.	.	.	.	.	.	.	.	.
.	.	8E\J	.	8e\J	.	8gJ 8B/	.	.	.	.	.	.	.	8ee\J	.	.	.	.	.	.	.	.	.	.	.	.	.
=22	=22	=22	=22	=22	=22	=22	=22	=22	=22	=22	=22	=22	=22	=22	=22	=22	=22	=22	=22	=22	=22	=22	=22	=22	=22	=22	=22
2.ryy	.	8E\L	sfp	8e\L	sfp	8gL 8B/	sfp	2.r	.	2.r	.	2.r	.	8ee\L	fp	2.r	.	2.r	.	2.r	.	2.r	.	2.r	.	2.r	.
.	.	16E\L	.	16e\L	.	16gL 16B/	.	.	.	.	.	.	.	16ee\L	.	.	.	.	.	.	.	.	.	.	.	.	.
.	.	16E\JJ	.	16e\JJ	.	16gJJ 16B/	.	.	.	.	.	.	.	16ee\JJ	.	.	.	.	.	.	.	.	.	.	.	.	.
.	.	8E\L	.	8e\L	.	8gL 8B/	.	.	.	.	.	.	.	8ee\L	.	.	.	.	.	.	.	.	.	.	.	.	.
.	.	8E\	.	8e\	.	8g 8B/	.	.	.	.	.	.	.	8ee\	.	.	.	.	.	.	.	.	.	.	.	.	.
.	.	8E\	.	8e\	.	8g 8B/	.	.	.	.	.	.	.	8ee\	.	.	.	.	.	.	.	.	.	.	.	.	.
!!LO:TX:a:Bi:t=[segno]:problem:znak segno na kresce taktowej
.	.	8E\J	.	8e\J	.	8gJ 8B/	.	.	.	.	.	.	.	8ee\J	.	.	.	.	.	.	.	.	.	.	.	.	.
=23||	=23||	=23||	=23||	=23||	=23||	=23||	=23||	=23||	=23||	=23||	=23||	=23||	=23||	=23||	=23||	=23||	=23||	=23||	=23||	=23||	=23||	=23||	=23||	=23||	=23||	=23||	=23||
*	*	*	*	*	*	*	*	*	*	*	*	*	*	*	*	*^	*	*	*	*	*	*	*	*	*	*	*
!	!	!	!	!	!	!	!	!	!	!	!	!	!	!	!	!LO:TX:a:t=Solo	!	!	!	!	!	!	!	!	!LO:TX:a:t=Solo.	!	!LO:TX:a:t=Trio.	!
2.ryy	.	4E\	.	8e\L	.	8gL 8B/	sfp	2.r	.	2.r	.	2.ryy	.	8ee\L	fp	8e'/L	2.r	.	2.r	.	2.r	.	2.r	.	8ee'\L	.	2.r	.
.	.	.	.	16e\L	.	16gL 16B/	.	.	.	.	.	.	.	16ee\L	.	8f#'/J	.	.	.	.	.	.	.	.	8ff#'\J	.	.	.
.	.	.	.	16e\JJ	.	16gJJ 16B/	.	.	.	.	.	.	.	16ee\JJ	.	.	.	.	.	.	.	.	.	.	.	.	.	.
.	.	4r	.	8e\L	.	8gL 8B/	.	.	.	.	.	.	.	8ee\L	.	(4.g/	.	.	.	.	.	.	.	.	(4.gg\	.	.	.
.	.	.	.	8e\	.	8g 8B/	.	.	.	.	.	.	.	8ee\	.	.	.	.	.	.	.	.	.	.	.	.	.	.
.	.	4r	.	8e\	.	8g 8B/	.	.	.	.	.	.	.	8ee\	.	.	.	.	.	.	.	.	.	.	.	.	.	.
.	.	.	.	8e\J	.	8gJ 8B/	.	.	.	.	.	.	.	8ee\J	.	8b/)	.	.	.	.	.	.	.	.	8bb\)	.	.	.
=24	=24	=24	=24	=24	=24	=24	=24	=24	=24	=24	=24	=24	=24	=24	=24	=24	=24	=24	=24	=24	=24	=24	=24	=24	=24	=24	=24	=24
2.ryy	.	4AA/	.	8eL 8A\	.	8f#L 8c/	.	2.r	.	2.r	.	2.ryy	.	8ee\L	fp	8a'/L	2.r	.	2.r	.	2.r	.	2.r	.	8aa'\L	.	2.r	.
.	.	.	.	16eL 16A\	.	16f#L 16c/	.	.	.	.	.	.	.	16ee\L	.	8g'/J	.	.	.	.	.	.	.	.	8gg'\J	.	.	.
.	.	.	.	16eJJ 16A\	.	16f#JJ 16c/	.	.	.	.	.	.	.	16ee\JJ	.	.	.	.	.	.	.	.	.	.	.	.	.	.
.	.	4r	.	8eL 8A\	.	8f#L 8c/	.	.	.	.	.	.	.	8ee\L	.	(4.f#/	.	.	.	.	.	.	.	.	(4.ff#\	.	.	.
.	.	.	.	8e 8A\	.	8f# 8c/	.	.	.	.	.	.	.	8ee\	.	.	.	.	.	.	.	.	.	.	.	.	.	.
.	.	4r	.	8e 8A\	.	8f# 8c/	.	.	.	.	.	.	.	8ee\	.	.	.	.	.	.	.	.	.	.	.	.	.	.
.	.	.	.	8eJ 8A\	.	8f#J 8c/	.	.	.	.	.	.	.	8ee\J	.	8e/)	.	.	.	.	.	.	.	.	8ee\)	.	.	.
*	*	*	*	*	*	*	*	*	*	*	*	*	*	*	*	*v	*v	*	*	*	*	*	*	*	*	*	*	*
=25	=25	=25	=25	=25	=25	=25	=25	=25	=25	=25	=25	=25	=25	=25	=25	=25	=25	=25	=25	=25	=25	=25	=25	=25	=25	=25	=25
!	!	!	!	!	!	!	!	!	!	!	!	!	!	!	!	!LO:TX:b:t=|	!	!	!	!	!	!	!	!LO:TX:a:t=|	!	!	!
2.ryy	.	8BB/	.	8r	.	8r	.	2.r	.	2.r	.	2.ryy	.	8ee\	p	16d#X/LL	.	2.r	.	2.r	.	2.r	.	(16dd#X\LL	.	2.r	.
.	.	.	.	.	.	.	.	.	.	.	.	.	.	.	.	(16cc/	.	.	.	.	.	.	.	16ccc\	.	.	.
.	.	8r	.	8f# 8B\	.	8a 8B/	.	.	.	.	.	.	.	8r	.	16b/	.	.	.	.	.	.	.	16bb\	.	.	.
.	.	.	.	.	.	.	.	.	.	.	.	.	.	.	.	16a#X/JJ	.	.	.	.	.	.	.	16aa#X\JJ	.	.	.
.	.	8D#X/	.	8r	.	8r	.	.	.	.	.	.	.	8ee\	.	8b/L)	.	.	.	.	.	.	.	8bb\L)	.	.	.
.	.	8r	.	8f# 8B\	.	8a 8B/	.	.	.	.	.	.	.	8r	.	8f#'/	.	.	.	.	.	.	.	8ff#\	.	.	.
.	.	8BB/	.	8r	.	8r	.	.	.	.	.	.	.	8ee\	.	8b'/	.	.	.	.	.	.	.	8bb\	.	.	.
.	.	8r	.	8f# 8B\	.	8a 8B/	.	.	.	.	.	.	.	8r	.	8a#'/J	.	.	.	.	.	.	.	8aa#\J	.	.	.
!!LO:PB:g=original
=26	=26	=26	=26	=26	=26	=26	=26	=26	=26	=26	=26	=26	=26	=26	=26	=26	=26	=26	=26	=26	=26	=26	=26	=26	=26	=26	=26
*	*	*	*	*	*	*	*	*	*	*	*	*	*	*^	*	*^	*	*	*	*^	*	*	*	*	*	*	*
!	!	!	!	!	!	!	!	!LO:TX:a:t=|	!	!	!	!	!	!	!	!	!LO:TX:a:t=|	!	!	!	!	!	!	!	!	!	!LO:TX:a:t=|	!	!	!
2.ryy	.	8E\	mf	8r	.	8r	mf	8gg\L	mf	(4E\	p	2.ryy	.	4ee\	2.r	.	8g/L	2.r	.	(4G\	.	(4ee/	2b\	.	2.r	.	8gg\L	.	2.r	.
!	!	!	!	!	!	!	!	!LO:TUP:a:problem:klamra łukowa	!	!	!	!	!	!	!	!	!LO:TUP:a:problem:klamra łukowa	!	!	!	!	!	!	!	!	!	!LO:TUP:a:problem:klamra łukowa	!	!	!
.	.	8r	.	8e 8B\	.	8g 8B/	.	24bb\L	.	.	.	.	.	.	.	.	24b/L	.	.	.	.	.	.	.	.	.	24bb\L	.	.	.
.	.	.	.	.	.	.	.	24aa\	.	.	.	.	.	.	.	.	24a/	.	.	.	.	.	.	.	.	.	24aa\	.	.	.
.	.	.	.	.	.	.	.	24gg\JJ	.	.	.	.	.	.	.	.	24g/JJ	.	.	.	.	.	.	.	.	.	24gg\JJ	.	.	.
.	.	8BB/	.	8r	.	8r	.	8ff#\L	.	4BB/	.	.	.	4ee\	.	.	8f#/L	.	.	4A\	.	4dd#X/	.	.	.	.	8ff#\L	.	.	.
!	!	!	!	!	!	!	!	!LO:TUP:a:problem:klamra łukowa	!	!	!	!	!	!	!	!	!LO:TUP:a:problem:klamra łukowa	!	!	!	!	!	!	!	!	!	!LO:TUP:a:problem:klamra łukowa	!	!	!
.	.	8r	.	8d#X\	.	8a 8B/	.	24aa\L	.	.	.	.	.	.	.	.	24a/L	.	.	.	.	.	.	.	.	.	24aa\L	.	.	.
.	.	.	.	.	.	.	.	24gg\	.	.	.	.	.	.	.	.	24g/	.	.	.	.	.	.	.	.	.	24gg\	.	.	.
.	.	.	.	.	.	.	.	24ff#\JJ	.	.	.	.	.	.	.	.	24f#/JJ	.	.	.	.	.	.	.	.	.	24ff#\JJ	.	.	.
.	.	8E\	.	8e\	.	8g 8B/	.	8ee\	.	8E\)	.	.	.	4ee\	.	.	8e/L	.	.	8G\)	.	8ee/)	8b\	.	.	.	8ee\L	.	.	.
.	.	8r	.	8r	.	8r	.	8r	.	8r	.	.	.	.	.	.	8B/J	.	.	8r	.	8r	8ryy	.	.	.	8b\J	.	.	.
*	*	*	*	*	*	*	*	*	*	*	*	*	*	*	*	*	*	*	*	*	*	*v	*v	*	*	*	*	*	*	*
=27	=27	=27	=27	=27	=27	=27	=27	=27	=27	=27	=27	=27	=27	=27	=27	=27	=27	=27	=27	=27	=27	=27	=27	=27	=27	=27	=27	=27	=27
2.ryy	.	4E\	p	8r	.	8r	.	2.r	.	2.r	.	2.ryy	.	8ee\L	2.r	p	(16e/LL	2.r	.	2.r	.	2.r	.	2.r	.	(16ee\LL	.	2.r	.
.	.	.	.	.	.	.	.	.	.	.	.	.	.	.	.	.	16d#X/	.	.	.	.	.	.	.	.	16dd#X\	.	.	.
.	.	.	.	16e\LL	.	16gLL 16B/	.	.	.	.	.	.	.	16ee\L	.	.	16e/	.	.	.	.	.	.	.	.	16ee\	.	.	.
.	.	.	.	16e\JJ	.	16gJJ 16B/	p	.	.	.	.	.	.	16ee\JJ	.	.	16f#/JJ	.	.	.	.	.	.	.	.	16ff#\JJ	.	.	.
.	.	4r	.	8e\L	.	8gL 8B/	.	.	.	.	.	.	.	8ee\L	.	.	4.g/)	.	.	.	.	.	.	.	.	4.gg\)	.	.	.
.	.	.	.	8e\	.	8g 8B/	.	.	.	.	.	.	.	8ee\	.	.	.	.	.	.	.	.	.	.	.	.	.	.	.
.	.	4r	.	8e\	.	8g 8B/	.	.	.	.	.	.	.	8ee\	.	.	.	.	.	.	.	.	.	.	.	.	.	.	.
.	.	.	.	8e\J	.	8gJ 8B/	.	.	.	.	.	.	.	8ee\J	.	.	8b/	.	.	.	.	.	.	.	.	8bb\	.	.	.
=28	=28	=28	=28	=28	=28	=28	=28	=28	=28	=28	=28	=28	=28	=28	=28	=28	=28	=28	=28	=28	=28	=28	=28	=28	=28	=28	=28	=28	=28
2.ryy	.	4AA/	.	8r	.	8r	.	2.r	.	2.r	.	2.ryy	.	8ee\L	2.r	p	(16cc/LL	2.r	.	2.r	.	2.r	.	2.r	.	(16ccc\LL	.	2.r	.
.	.	.	.	.	.	.	.	.	.	.	.	.	.	.	.	.	16dd/	.	.	.	.	.	.	.	.	16ddd\	.	.	.
.	.	.	.	16c\LL	.	16f#LL 16A/	.	.	.	.	.	.	.	16ee\L	.	.	16cc/	.	.	.	.	.	.	.	.	16ccc\	.	.	.
.	.	.	.	16c\JJ	.	16f#JJ 16A/	.	.	.	.	.	.	.	16ee\JJ	.	.	16b/JJ	.	.	.	.	.	.	.	.	16bb\JJ	.	.	.
.	.	4r	.	8c\L	.	8f#L 8A/	.	.	.	.	.	.	.	8ee\L	.	.	4.a/)	.	.	.	.	.	.	.	.	4.aa\)	.	.	.
.	.	.	.	8c\	.	8f# 8A/	.	.	.	.	.	.	.	8ee\	.	.	.	.	.	.	.	.	.	.	.	.	.	.	.
.	.	8r	.	8c\	.	8f# 8A/	.	.	.	.	.	.	.	8ee\	.	.	.	.	.	.	.	.	.	.	.	.	.	.	.
.	.	8AA/	.	8c\J	.	8fnJ 8A^/	sf	.	.	.	.	.	.	8ee\J	.	.	8fn/	.	.	.	.	.	.	.	.	8ffn\	.	.	.
=29	=29	=29	=29	=29	=29	=29	=29	=29	=29	=29	=29	=29	=29	=29	=29	=29	=29	=29	=29	=29	=29	=29	=29	=29	=29	=29	=29	=29	=29
2.ryy	.	4BB/	.	8r	.	8r	.	2.r	.	2.r	.	2.ryy	.	8ee\L	2.r	p	(16e/LL	2.r	.	2.r	.	2.r	.	2.r	.	(16ee\LL	.	2.r	.
.	.	.	.	.	.	.	.	.	.	.	.	.	.	.	.	.	16B/)	.	.	.	.	.	.	.	.	16b\)	.	.	.
.	.	.	.	16B/LL	.	16eLL 16G/	.	.	.	.	.	.	.	16ee\L	.	.	16e'/	.	.	.	.	.	.	.	.	(16ee'\	.	.	.
.	.	.	.	16B/JJ	.	16eJJ 16G/	.	.	.	.	.	.	.	16ee\JJ	.	.	16f#'/JJ	.	.	.	.	.	.	.	.	16ff#'\JJ)	.	.	.
.	.	4r	.	8B/L	.	8eL 8G/	.	.	.	.	.	.	.	8ee\L	.	.	8g'/L	.	.	.	.	.	.	.	.	8gg'\L	.	.	.
.	.	.	.	8B/J	.	8eJ 8G/	.	.	.	.	.	.	.	8ee\	.	.	8e'/J	.	.	.	.	.	.	.	.	8ee'\J	.	.	.
.	.	.	.	.	.	.	.	.	.	.	.	.	.	.	.	.	(8qg/	.	.	.	.	.	.	.	.	(8qgg/	.	.	.
.	.	8BB^/	.	8r	.	8r	.	.	.	.	.	.	.	8ee\	.	.	8f#/L)	.	.	.	.	.	.	.	.	8ff#\L)	.	.	.
.	.	8r	.	8B 8F#^/	.	8d#X 8A^/	.	.	.	.	.	.	.	8ee\J	.	.	8d#X'/J	.	.	.	.	.	.	.	.	8dd#X'\J	.	.	.
!!LO:PB:g=original
*	*	*	*	*	*	*	*	*	*	*	*	*	*	*v	*v	*	*	*	*	*	*	*	*	*	*	*	*	*	*
=30	=30	=30	=30	=30	=30	=30	=30	=30	=30	=30	=30	=30	=30	=30	=30	=30	=30	=30	=30	=30	=30	=30	=30	=30	=30	=30	=30	=30
2.ryy	.	4E\	.	8r	.	8r	.	2.r	.	2.r	.	2.ryy	.	8ee\L	.	8e'/L	2.r	.	2.r	.	2.r	.	2.r	.	8ee'\L	.	2.r	.
.	.	.	.	16BLL 16E/	.	16eLL 16G/	.	.	.	.	.	.	.	16ee\L	.	(16cc/L	.	.	.	.	.	.	.	.	(16ccc\L	.	.	.
.	.	.	.	16BJJ 16E/	.	16eJJ 16G/	.	.	.	.	.	.	.	16ee\JJ	.	16b/JJ	.	.	.	.	.	.	.	.	16bb\JJ)	.	.	.
.	.	4r	.	8BL 8F#/	.	8eL 8G/	.	.	.	.	.	.	.	4ee\	.	8b'/L)	.	.	.	.	.	.	.	.	8bb\L	.	.	.
.	.	.	.	8BJ 8F#/	.	8eJ 8G/	.	.	.	.	.	.	.	.	.	8e'/J	.	.	.	.	.	.	.	.	(8ee\J	.	.	.
.	.	.	.	.	.	.	.	.	.	.	.	.	.	.	.	(8qg/	.	.	.	.	.	.	.	.	8qgg/	.	.	.
.	.	8BB^/	.	8r	.	8r	.	.	.	.	.	.	.	4ee\	.	8f#/L)	.	.	.	.	.	.	.	.	8ff#\L)	.	.	.
.	.	8r	.	8B 8F#^/	.	8d#X 8A^/	.	.	.	.	.	.	.	.	.	8d#X'/J	.	.	.	.	.	.	.	.	8dd#X'\J	.	.	.
*	*	*	*	*	*	*	*	*	*	*	*	*	*	*	*	*v	*v	*	*	*	*	*	*	*	*	*	*	*
=31	=31	=31	=31	=31	=31	=31	=31	=31	=31	=31	=31	=31	=31	=31	=31	=31	=31	=31	=31	=31	=31	=31	=31	=31	=31	=31	=31
*	*	*	*	*	*	*	*	*	*	*	*	*	*	*	*	*	*	*	*	*^	*	*^	*	*	*	*	*
!LO:SIC:s=4C/	!	!	!	!	!	!	!	!	!	!	!	!	!	!	!	!	!	!	!	!	!	!	!	!	!	!	!	!	!
4Re/	.	8E\	f	8r	.	8r	f	8e'/L	f	2.E\	f	2.ryy	.	16ee\LL	f <	2.r	.	2.E\	.	2.ee/	2.b\	f <	8e'/L	2g\	f <	2.r	.	8ee'\L	f
.	.	.	.	.	.	.	.	.	.	.	.	.	.	16ee\	[	.	.	.	.	.	.	.	.	.	.	.	.	.	.
.	.	8r	.	8B 8E/	.	8e 8G/	.	16f#'/L	<	.	.	.	.	16ee\	.	.	.	.	.	.	.	.	16f#'/L	.	[	.	.	16ff#'\L	.
.	.	.	.	.	.	.	.	16g'/JJ	[	.	.	.	.	16ee\	.	.	.	.	.	.	.	.	16g'/JJ	.	.	.	.	16gg'\JJ	.
4r	.	8E\	.	8r	.	8r	.	16a'\LL	.	.	.	.	.	16ee\	.	.	.	.	.	.	.	.	16a'/LL	.	.	.	.	16aa'\LL	.
.	.	.	.	.	.	.	.	16b'\	.	.	.	.	.	16ee\	.	.	.	.	.	.	.	.	16b'/	.	.	.	.	16bb'\	.
.	.	8r	.	8B 8E/	.	8e 8G/	.	16cc#X'\	.	.	.	.	.	16ee\	.	.	.	.	.	.	.	.	16cc#X'/	.	.	.	.	16ccc#X'\	.
.	.	.	.	.	.	.	.	16dd#X'\JJ	.	.	.	.	.	16ee\	>	.	.	.	.	.	.	.	16dd#X'/JJ	.	.	.	.	16ddd#X'\JJ	.
4r	.	8E\	.	8r	.	8r	.	8.ee'\L	>	.	.	.	.	16ee\	]	.	.	.	.	.	.	.	8ee'/L	4g#X\	>	.	.	8eee'\L	.
.	.	.	.	.	.	.	.	.	.	.	.	.	.	16ee\	.	.	.	.	.	.	.	.	.	.	.	.	.	.	.
.	.	8r	.	8B 8E^/	.	8e 8G#X/	.	.	.	.	.	.	.	16ee\	.	.	.	.	.	.	.	.	8ddn'/J	.	]	.	.	8dddn'\J	.
.	.	.	.	.	.	.	.	16ddn'\Jk	]	.	.	.	.	16ee\JJ	.	.	.	.	.	.	.	.	.	.	.	.	.	.	.
=32	=32	=32	=32	=32	=32	=32	=32	=32	=32	=32	=32	=32	=32	=32	=32	=32	=32	=32	=32	=32	=32	=32	=32	=32	=32	=32	=32	=32	=32
*	*	*	*	*	*	*	*	*	*	*	*	*	*	*	*	*^	*	*	*	*	*	*	*	*	*	*	*	*	*
2.r	.	8AA/	.	8r	.	8r	.	(16dd\LL	.	[2AA/	.	2.ryy	.	16ee\LL	.	4r	2.r	.	2A\	.	[2ee/	[2cc\	[ >	(16dd/LL	[2a\	.	4r	.	(16ddd\LL	.
.	.	.	.	.	.	.	.	16ccn\	.	.	.	.	.	16ee\	.	.	.	.	.	.	.	.	.	16ccn/	.	.	.	.	16cccn\	.
.	.	8r	.	8c 8E/	.	8e 8A/	.	16b\	.	.	.	.	.	16ee\	.	.	.	.	.	.	.	.	.	16b/	.	.	.	.	16bb\	.
.	.	.	.	.	.	.	.	16cc\JJ)	.	.	.	.	.	16ee\	.	.	.	.	.	.	.	.	.	16cc/JJ	.	.	.	.	16ccc\JJ)	.
.	.	8AA/	.	8r	.	8r	.	4.a/	.	.	.	.	.	16ee\	.	4r	.	.	.	.	.	.	.	4.a/)	.	.	4r	.	4.aa\	.
.	.	.	.	.	.	.	.	.	.	.	.	.	.	16ee\	.	.	.	.	.	.	.	.	.	.	.	.	.	.	.	.
.	.	8r	.	8c 8E/	.	8e 8A/	.	.	.	.	.	.	.	16ee\	.	.	.	.	.	.	.	.	.	.	.	.	.	.	.	.
.	.	.	.	.	.	.	.	.	.	.	.	.	.	16ee\JJ	.	.	.	.	.	.	.	.	.	.	.	.	.	.	.	.
.	.	8AA/	.	8r	.	8r	.	.	.	8AA/]	.	.	.	8ee\	.	8r	.	.	8A\	.	8ee/]	8cc\]	]	.	8a\]	.	8r	.	.	.
.	.	8r	.	8c 8E/	.	8f# 8A^/	.	(8cc^\	.	8r	.	.	.	8r	.	(8cc^/	.	.	8r	.	8r	8r	.	8r	8r	.	(8ccc^\	.	8r	.
*	*	*	*	*	*	*	*	*	*	*	*	*	*	*	*	*	*	*	*	*	*v	*v	*	*	*	*	*	*	*	*
*	*	*	*	*	*	*	*	*	*	*	*	*	*	*	*	*	*	*	*	*	*	*	*v	*v	*	*	*	*	*
=33	=33	=33	=33	=33	=33	=33	=33	=33	=33	=33	=33	=33	=33	=33	=33	=33	=33	=33	=33	=33	=33	=33	=33	=33	=33	=33	=33	=33
2.r	.	4BB/	p	8r	p	8r	p	8b\)	.	2.r	.	2.ryy	.	4ee\	p	8b'/L)	2.r	.	2.r	.	2.r	.	2.r	.	8bb\L)	.	2.r	.
.	.	.	.	16BLL 16E/	.	16eLL 16G/	.	8r	.	.	.	.	.	.	.	(16cc/L	.	.	.	.	.	.	.	.	(16ccc\L	.	.	.
.	.	.	.	16BJJ 16E/	.	16eJJ 16G/	.	.	.	.	.	.	.	.	.	16b/JJ)	.	.	.	.	.	.	.	.	16bb\JJ)	.	.	.
.	.	4r	.	8BL 8F#/	.	8eL 8G/	.	4r	.	.	.	.	.	4r	.	8b'/L	.	.	.	.	.	.	.	.	8bb'\L	.	.	.
.	.	.	.	8BJ 8F#/	.	8eJ 8G/	.	.	.	.	.	.	.	.	.	8e'/J	.	.	.	.	.	.	.	.	(8ee'\J	.	.	.
.	.	.	.	.	.	.	.	.	.	.	.	.	.	.	.	(8qg/	.	.	.	.	.	.	.	.	8qgg/	.	.	.
.	.	8BB^/	.	8r	.	8r	.	4r	.	.	.	.	.	4ee\	.	8f#/L)	.	.	.	.	.	.	.	.	8ff#\L)	.	.	.
.	.	8r	.	8B 8F#/	.	8d#X 8A^/	.	.	.	.	.	.	.	.	.	8d#X'/J	.	.	.	.	.	.	.	.	8dd#X'\J	.	.	.
=34	=34	=34	=34	=34	=34	=34	=34	=34	=34	=34	=34	=34	=34	=34	=34	=34	=34	=34	=34	=34	=34	=34	=34	=34	=34	=34	=34	=34
2.r	.	8E'/L	.	8BL 8E'/	.	8eL 8G/	.	8e'/L	p	2.r	.	2.ryy	.	8ee\	.	8e'/L	2.r	.	2.r	.	2.r	.	2.r	.	8ee'\L	.	2.r	.
.	.	8BB'/J	.	8A'/J	.	8B/J	.	8d#X'/J	.	.	.	.	.	8r	.	(16g/L	.	.	.	.	.	.	.	.	(16gg\L	.	.	.
.	.	.	.	.	.	.	.	.	.	.	.	.	.	.	.	16f#/JJ)	.	.	.	.	.	.	.	.	16ff#\JJ)	.	.	.
.	.	8r	.	(4A/	.	[4B/	.	(4d#/	.	.	.	.	.	4ee\	.	(4f#/	.	.	.	.	.	.	.	.	(4ff#\	.	.	.
.	.	8BB/L	.	.	.	.	.	.	.	.	.	.	.	.	.	.	.	.	.	.	.	.	.	.	.	.	.	.
.	.	8E/J	.	8G/)	.	8B/]	.	8e/)	.	.	.	.	.	8ee\	.	8e/)	.	.	.	.	.	.	.	.	8ee\)	.	.	.
.	.	8r	.	8r	.	8r	.	8r	.	.	.	.	.	8r	.	8r	.	.	.	.	.	.	.	.	8r	.	.	.
!!LO:PB:g=original
*	*	*	*	*	*	*	*	*	*	*	*	*	*	*	*	*v	*v	*	*	*	*	*	*	*	*	*	*	*
=35:|!	=35:|!	=35:|!	=35:|!	=35:|!	=35:|!	=35:|!	=35:|!	=35:|!	=35:|!	=35:|!	=35:|!	=35:|!	=35:|!	=35:|!	=35:|!	=35:|!	=35:|!	=35:|!	=35:|!	=35:|!	=35:|!	=35:|!	=35:|!	=35:|!	=35:|!	=35:|!	=35:|!
*	*	*	*	*	*	*	*	*	*	*	*	*	*	*	*	*	*	*	*	*^	*	*	*	*	*	*	*
!LO:SIC:s=8C/	!	!	!	!	!	!	!	!	!	!	!	!	!	!	!	!	!	!	!	!	!	!	!	!	!	!	!	!
8Re/	f	8G\	.	8g 8B\	f	8gg 8b 8d\	.	8gg 8b 8d\	f	8D\	f	8D\	.	2.ryy	.	8b 8g/	f	8G'\L	f	8dd 8g/	2ryy	.	8gg 8b\	.	8gg\	.	8ggg\	f
8r	.	(32D/LLL	.	(32d/LLL	.	(32dd\LLL	.	(32ddd\LLL	.	8r	.	8r	.	.	.	8r	.	(32d\LL	.	8r	.	.	8r	.	8r	.	8r	.
.	.	32C/	.	32c/	.	32cc\	.	32ccc\	.	.	.	.	.	.	.	.	.	32c\	.	.	.	.	.	.	.	.	.	.
.	.	32BB/	.	32B/	.	32b\	.	32bb\	.	.	.	.	.	.	.	.	.	32B\	.	.	.	.	.	.	.	.	.	.
.	.	32AA/JJJ	.	32A/JJJ	.	32a\JJJ	.	32aa\JJJ	.	.	.	.	.	.	.	.	.	32A\JJJ	.	.	.	.	.	.	.	.	.	.
4r	.	8GG/)	.	8G/)	.	8g/)	.	8gg\)	.	8r	.	4r	.	.	.	8r	.	8G\)	.	8r	.	.	8r	.	8r	.	8r	.
.	.	8r	.	8r	.	8r	.	8r	.	16G'\LL	.	.	.	.	.	16dd'\LL	.	16G'\LL	.	16ddLL 16g/	.	.	16bLL 16g'/	.	16gg\LL	.	16bb'\LL	.
.	.	.	.	.	.	.	.	.	.	16G'\JJ	.	.	.	.	.	16dd'\JJ	.	16G'\JJ	.	16ddJJ 16g/	.	.	16bJJ 16g'/	.	16gg\JJ	.	16bb'\JJ	.
4r	.	4r	.	4r	.	4r	.	4r	.	16D'\LL	.	4r	.	.	.	16dd'\LL	.	16D'\LL	.	16dd/LL	16dd\LL	.	16aLL 16f#'/	.	16ff#'\LL	.	16aa'\LL	.
.	.	.	.	.	.	.	.	.	.	16D'\	.	.	.	.	.	16dd'\	.	16D'\	.	16dd/	16dd\	.	16a 16f#'/	.	16ff#'\	.	16aa'\	.
.	.	.	.	.	.	.	.	.	.	16G'\	.	.	.	.	.	16dd'\	.	16G'\	.	16dd/	16dd\	.	16b 16g'/	.	16gg\	.	16gg'\	.
.	.	.	.	.	.	.	.	.	.	16G'\JJ	.	.	.	.	.	16dd'\JJ	.	16G'\JJ	.	16dd/JJ	16dd\JJ	.	16bJJ 16g'/	.	16gg\JJ	.	16gg'\JJ	.
=36	=36	=36	=36	=36	=36	=36	=36	=36	=36	=36	=36	=36	=36	=36	=36	=36	=36	=36	=36	=36	=36	=36	=36	=36	=36	=36	=36	=36
!	!	!	!	!	!	!	!	!	!	!	!	!	!	!	!	!	!	!LO:TX:a:t=|	!	!	!	!	!	!	!	!	!	!
!LO:SIC:s=8C/	!	!	!	!	!	!	!	!	!	!	!	!	!	!	!	!	!	!	!	!	!	!	!	!	!	!	!	!
8Re/	.	8D\	.	8f# 8A 8D/	.	8dd 8f#/	.	8dd 8f#/	.	8D\	.	8D\	.	2.ryy	.	8dd\	.	8D\L	.	8dd/	8dd\	.	8dd 8f#/	.	8ff#\	.	8ddd\	.
8r	.	(32A\LLL	.	(32a\LLL	.	(32aa\LLL	.	(32aa\LLL	.	8r	.	8r	.	.	.	8r	.	(32A\LL	.	8r	8ryy	.	8r	.	8r	.	8r	.
.	.	32G\	.	32g\	.	32gg\	.	32gg\	.	.	.	.	.	.	.	.	.	32G\	.	.	.	.	.	.	.	.	.	.
.	.	32F#\	.	32f#\	.	32ff#\	.	32ff#\	.	.	.	.	.	.	.	.	.	32F#\	.	.	.	.	.	.	.	.	.	.
.	.	32E\JJJ	.	32e\JJJ	.	32ee\JJJ	.	32ee\JJJ	.	.	.	.	.	.	.	.	.	32E\JJJ	.	.	.	.	.	.	.	.	.	.
4r	.	8D\)	.	8d\)	.	8dd\)	.	8dd\)	.	8r	.	4r	.	.	.	8r	.	8D\)	.	8r	8ryy	.	8r	.	8r	.	8r	.
.	.	8r	.	8r	.	8r	.	8r	.	16F#'\LL	.	.	.	.	.	16dd'\LL	.	16F#'\LL	.	16dd/LL	16dd\LL	.	16ccLL 16a'/	.	16aa'\LL	.	16ccc'\LL	.
.	.	.	.	.	.	.	.	.	.	16F#'\JJ	.	.	.	.	.	16dd'\JJ	.	16F#'\JJ	.	16dd/JJ	16dd\JJ	.	16ccJJ 16a'/	.	16aa'\JJ	.	16ccc'\JJ	.
4r	.	4r	.	4r	.	4r	.	4r	.	16G'\LL	.	4r	.	.	.	16dd'\LL	.	16G'\LL	.	16dd/LL	16dd\LL	.	16bLL 16g'/	.	16gg'\LL	.	16bb'\LL	.
.	.	.	.	.	.	.	.	.	.	16G'\	.	.	.	.	.	16dd'\	.	16G'\	.	16dd/	16dd\	.	16b 16g'/	.	16gg'\	.	16bb'\	.
.	.	.	.	.	.	.	.	.	.	16D'\	.	.	.	.	.	16dd'\	.	16D'\	.	16dd/	16dd\	.	16a 16f#'/	.	16ff#'\	.	16aa'\	.
.	.	.	.	.	.	.	.	.	.	16D'\JJ	.	.	.	.	.	16dd'\JJ	.	16D'\JJ	.	16dd/JJ	16dd\JJ	.	16aJJ 16f#'/	.	16ff#'\JJ	.	16aa'\JJ	.
=37	=37	=37	=37	=37	=37	=37	=37	=37	=37	=37	=37	=37	=37	=37	=37	=37	=37	=37	=37	=37	=37	=37	=37	=37	=37	=37	=37	=37
!	!	!	!	!	!	!	!	!	!	!	!	!	!	!	!	!	!	!LO:TX:a:t=|	!	!	!	!	!	!	!	!	!	!
!LO:SIC:s=8C/	!	!	!	!	!	!	!	!	!	!	!	!	!	!	!	!	!	!	!	!	!	!	!	!	!	!	!	!
8Re/	.	8E\	.	8e 8G/	.	8g 8B/	.	8ee 8b 8e/	.	8E\	.	2.r	.	2.ryy	.	8ee\	.	8E\L	.	8ee/	8ee\	.	8g 8e/	.	8gg\	.	8gg\	.
8r	.	32B\LLL	.	(32b\LLL	.	(32b/LLL	.	(32bb\LLL	.	8r	.	.	.	.	.	8r	.	(32B\LL	.	8r	8ryy	.	8r	.	8r	.	8r	.
.	.	32A\	.	32a\	.	32a/	.	32aa\	.	.	.	.	.	.	.	.	.	32A\	.	.	.	.	.	.	.	.	.	.
.	.	32G\	.	32g\	.	32g/	.	32gg\	.	.	.	.	.	.	.	.	.	32G\	.	.	.	.	.	.	.	.	.	.
.	.	32F#\JJJ	.	32f#\JJJ	.	32f#/JJJ	.	32ff#\JJJ	.	.	.	.	.	.	.	.	.	32F#\JJJ	.	.	.	.	.	.	.	.	.	.
4r	.	8E\	.	8e\)	.	8e/)	.	8ee\)	.	8r	.	.	.	.	.	8r	.	8E\)	.	8r	8ryy	.	8r	.	8r	.	8r	.
.	.	8r	.	8r	.	8r	.	8r	.	16E'\LL	.	.	.	.	.	16eeLL 16e'\	.	16E'\LL	.	16ee/LL	16ee\LL	.	16bLL 16g'/	.	16ee\LL	.	16gg'\LL	.
.	.	.	.	.	.	.	.	.	.	16E'\JJ	.	.	.	.	.	16eeJJ 16e'\	.	16E'\JJ	.	16ee/JJ	16ee\JJ	.	16bJJ 16g'/	.	16ee\JJ	.	16gg'\JJ	.
4r	.	4r	.	4r	.	4r	.	4r	.	16BB'/LL	.	.	.	.	.	16bLL 16B/	.	16BB'/LL	.	16ff#X/LL	16dd#X\LL	.	16bLL 16a'/	.	16dd#X\LL	.	16ff#'\LL	.
.	.	.	.	.	.	.	.	.	.	16BB'/	.	.	.	.	.	16b 16B/	.	16BB'/	.	16ff#/	16dd#\	.	16b 16a'/	.	16dd#\	.	16ff#'\	.
.	.	.	.	.	.	.	.	.	.	16E'/	.	.	.	.	.	16ee 16e/	.	16E'/	.	16ee/	16ee\	.	16b 16g'/	.	16ee\	.	16ee'\	.
.	.	.	.	.	.	.	.	.	.	16E'/JJ	.	.	.	.	.	16eeJJ 16e/	.	16E'/JJ	.	16ee/JJ	16ee\JJ	.	16bJJ 16g'/	.	16ee\JJ	.	16ee'\JJ	.
!!LO:PB:g=original
=38	=38	=38	=38	=38	=38	=38	=38	=38	=38	=38	=38	=38	=38	=38	=38	=38	=38	=38	=38	=38	=38	=38	=38	=38	=38	=38	=38	=38
*	*	*	*	*	*	*	*	*	*	*	*	*	*	*	*	*^	*	*	*	*	*	*	*^	*	*	*	*	*
!	!	!	!	!	!	!	!	!	!	!	!	!	!	!	!	!	!	!	!	!	!	!	!	!	!	!	!LO:TX:a:t=col Flauto	!	!	!
!LO:SIC:s=4C/	!	!	!	!	!	!	!	!	!	!	!	!	!	!	!	!	!	!	!	!	!	!	!	!	!	!	!	!	!	!
4Re/	.	8C/L	.	16eLL 16c\	.	16eLL 16c/	.	(16eeLL 16e/	.	4.C/	.	32C/LLL	.	2.ryy	.	(16e/LL	4ryy	.	[4.G\	.	4.ee/	4.cc\	.	16eeLL 16g/	4ryy	.	(16ee\LL	.	(16ee\LL	.
.	.	.	.	.	.	.	.	.	.	.	.	32C/	.	.	.	.	.	.	.	.	.	.	.	.	.	.	.	.	.	.
.	.	.	.	16e 16c\	.	16e 16c/	.	16dd#X 16d#X/	.	.	.	32C/	.	.	.	16d#X/	.	.	.	.	.	.	.	(16d#X/	.	.	16dd#X\	.	16dd#X\	.
.	.	.	.	.	.	.	.	.	.	.	.	32C/	.	.	.	.	.	.	.	.	.	.	.	.	.	.	.	.	.	.
.	.	8C/J	.	16e 16c\	.	16e 16c/	.	16ee 16e/	.	.	.	32C/	.	.	.	16e/	.	.	.	.	.	.	.	16e/	.	.	16ee\	.	16ee\	.
.	.	.	.	.	.	.	.	.	.	.	.	32C/	.	.	.	.	.	.	.	.	.	.	.	.	.	.	.	.	.	.
.	.	.	.	16e 16c\	.	16e 16c/	.	16ff#JJ 16f#/	.	.	.	32C/	.	.	.	16f#/JJ)	.	.	.	.	.	.	.	16f#/JJ	.	.	16ff#\JJ	.	16ff#\JJ	.
.	.	.	.	.	.	.	.	.	.	.	.	32C/JJJ	.	.	.	.	.	.	.	.	.	.	.	.	.	.	.	.	.	.
!LO:SIC:s=4C/	!	!	!	!	!	!	!	!	!	!	!	!	!	!	!	!	!	!	!	!	!	!	!	!	!	!	!	!	!	!
4Re/	.	8C/L	.	16e 16c\	.	16e 16c/	.	8ggL 8g\)	.	.	.	8C/	.	.	.	(8g/L	8g\L	.	.	.	.	.	.	(8g/L)	8g\L	.	8gg\L)	.	8gg\L)	.
.	.	.	.	16e 16c\	.	16e 16c/	.	.	.	.	.	.	.	.	.	.	.	.	.	.	.	.	.	.	.	.	.	.	.	.
.	.	8C/J	.	16e 16c\	.	16e 16c/	.	(16eeL 16e\	.	8C/L	.	16C/LL	.	.	.	16e/L	8e\	.	8G'\L]	.	8eeL 8cc/	8ryy	.	16e/L	8e\	.	(16ee\L	.	(16ee\L	.
.	.	.	.	16e 16c\	.	16e 16c/	.	16ff#JJ 16f#\	.	.	.	16C/JJ	.	.	.	16f#/JJ	.	.	.	.	.	.	.	16f#/JJ	.	.	16ff#\JJ	.	16ff#\JJ	.
!LO:SIC:s=4C/	!	!	!	!	!	!	!	!	!	!	!	!	!	!	!	!	!	!	!	!	!	!	!	!	!	!	!	!	!	!
4Re/	.	8C/L	.	16e 16c\	.	16e 16c/	.	8ggL 8g\)	.	8C/	.	8C/L	.	.	.	8g/L)	8e\	.	8G'\	.	8ee 8cc/	4ryy	.	8g/L)	8e\	.	8gg\L)	.	8gg\L)	.
.	.	.	.	16e 16c\	.	16e 16c/	.	.	.	.	.	.	.	.	.	.	.	.	.	.	.	.	.	.	.	.	.	.	.	.
.	.	8C/J	.	16e 16c\	.	16e 16c/	.	8aaJ 8a'\	.	8C/J	.	8C/J	.	.	.	8a'/J	8e\J	.	8F#'\J	.	8eeJ 8cc/	.	.	8a'/J	8e\J	.	8aa'\J	.	8aa'\J	.
.	.	.	.	16eJJ 16c\	.	16eJJ 16c/	.	.	.	.	.	.	.	.	.	.	.	.	.	.	.	.	.	.	.	.	.	.	.	.
*	*	*	*	*	*	*	*	*	*	*	*	*	*	*	*	*	*	*	*	*	*v	*v	*	*	*	*	*	*	*	*
=39	=39	=39	=39	=39	=39	=39	=39	=39	=39	=39	=39	=39	=39	=39	=39	=39	=39	=39	=39	=39	=39	=39	=39	=39	=39	=39	=39	=39	=39
!	!	!	!	!	!	!	!	!LO:TX:a:t=|	!	!	!	!	!	!	!	!	!	!	!	!	!	!	!	!	!	!	!	!	!
!LO:SIC:s=4C/	!	!	!	!	!	!	!	!	!	!	!	!	!	!	!	!	!	!	!	!	!	!	!	!	!	!	!	!	!
4Re/	.	8BB/L	.	16d#X\LL	.	16f#LL 16B/	.	8bbL 8b\	.	4.BB/	.	2.r	.	2.ryy	.	8b'/L	4.d#X\	.	4.F#\	.	[4.ff#X [4.b\	.	8b'/L	[4d#X\	.	8bb'\L	.	8bb'\L	.
.	.	.	.	16d#\	.	16f# 16B/	.	.	.	.	.	.	.	.	.	.	.	.	.	.	.	.	.	.	.	.	.	.	.
.	.	8BB/	.	16d#\	.	16f# 16B/	.	(16aa#XL 16a#X\	.	.	.	.	.	.	.	(16a#X/L	.	.	.	.	.	.	(16a#X/L	.	.	(16aa#X\L	.	(16aa#X\L	.
.	.	.	.	16d#\	.	16f# 16B/	.	16cccJJ 16cc\	.	.	.	.	.	.	.	16cc/JJ	.	.	.	.	.	.	16cc/JJ	.	.	16ccc\JJ)	.	16ccc\JJ)	.
8r	.	8BB/	.	16d#\	.	16f# 16B/	.	8bbL 8b\)	.	.	.	.	.	.	.	8b/L)	.	.	.	.	.	.	8b/L)	8d#\L]	.	8bb\L	.	8bb\L	.
.	.	.	.	16d#\	.	16f# 16B/	.	.	.	.	.	.	.	.	.	.	.	.	.	.	.	.	.	.	.	.	.	.	.
!	!	!	!	!	!	!	!	!	!	!	!	!	!	!	!	!	!	!	!	!	!LO:TX:a:t=|	!	!	!	!	!	!	!	!
!LO:SIC:s=8C/L	!	!	!	!	!	!	!	!	!	!	!	!	!	!	!	!	!	!	!	!	!	!	!	!	!	!	!	!	!
8Re/L	.	8BB/J	.	16d#\	.	16f# 16B/	.	8ff# 8f#'\	.	8BB\L	.	.	.	.	.	8f#/	8d#\L	.	8BB\L	.	8ff#]L 8b\]	.	8dd#X'/	8f#\	.	8ff#\	.	8ff#\	.
.	.	.	.	16d#\JJ	.	16f#JJ 16B/	.	.	.	.	.	.	.	.	.	.	.	.	.	.	.	.	.	.	.	.	.	.	.
!	!	!	!	!	!	!	!	!	!	!	!	!	!	!	!	!	!	!	!	!	!LO:TX:a:t=|	!	!	!	!	!	!	!	!
!LO:SIC:s=8C/	!	!	!	!	!	!	!	!	!	!	!	!	!	!	!	!	!	!	!	!	!	!	!	!	!	!	!	!	!
8Re/	.	8E\L	sf	16e\LL	sf	16gLL 16B/	sf	8gg 8g'\	.	8E\	.	.	.	.	.	8g/	8e\	.	8E\	.	8gg 8b\	.	8ee'/	8g\	.	8gg\	.	8gg\	.
.	.	.	.	16e\	.	16g 16B/	.	.	.	.	.	.	.	.	.	.	.	.	.	.	.	.	.	.	.	.	.	.	.
!	!	!	!	!	!	!	!	!	!	!	!	!	!	!	!	!	!	!	!	!	!LO:TX:a:t=|	!	!	!	!	!	!	!	!
!LO:SIC:s=8C/J	!	!	!	!	!	!	!	!	!	!	!	!	!	!	!	!	!	!	!	!	!	!	!	!	!	!	!	!	!
8Re/J	.	8G\J	.	16e\	.	16g 16B/	.	8eeJ 8e'\	.	8G\J	.	.	.	.	.	8e/J	8e\J	.	8G\J	.	8ggJ 8b\	.	8ee'/J	8g\J	.	8ee\J	.	8ee\J	.
.	.	.	.	16e\JJ	.	16gJJ 16B/	.	.	.	.	.	.	.	.	.	.	.	.	.	.	.	.	.	.	.	.	.	.	.
=40	=40	=40	=40	=40	=40	=40	=40	=40	=40	=40	=40	=40	=40	=40	=40	=40	=40	=40	=40	=40	=40	=40	=40	=40	=40	=40	=40	=40	=40
!	!	!LO:TX:t=P:problem:mixed beam	!	!	!	!	!	!	!	!LO:TX:t=P:problem:mixed beam	!	!	!	!	!	!	!	!	!LO:TX:t=P:problem:mixed beam	!	!	!	!LO:TX:a:t=|	!	!	!	!	!	!
!LO:SIC:s=4C/	!	!	!	!	!	!	!	!	!	!	!	!	!	!	!	!	!	!	!	!	!	!	!	!	!	!	!	!	!
4Re/	.	8B\L	.	16d#X\LL	.	16f#LL 16B/	.	8dd#XL 8d#X'\	.	8B\L	.	2.r	.	2.ryy	.	8b'/L	4.d#X\	.	8B\L	.	4.ff#X 4.b\	.	8dd#X/L	[4f#\	.	8dd#X'\L	.	8dd#X'\L	.
.	.	.	.	16d#\	.	16f# 16B/	.	.	.	.	.	.	.	.	.	.	.	.	.	.	.	.	.	.	.	.	.	.	.
.	.	8BB\	.	16d#\	.	16f# 16B/	.	(16aa#XL 16a#X\	.	8BB\J	.	.	.	.	.	(16a#X/L	.	.	8BB\	.	.	.	(16a#X/L	.	.	(16aa#X\L	.	(16aa#X\L	.
.	.	.	.	16d#\	.	16f# 16B/	.	16cccJJ 16cc\	.	.	.	.	.	.	.	16cc/JJ	.	.	.	.	.	.	16cc/JJ	.	.	16ccc\JJ	.	16ccc\JJ	.
8r	.	8BB\	.	16d#\	.	16f# 16B/	.	8bbL 8b\)	.	8BB/L	.	.	.	.	.	8b/L)	.	.	8BB\J	.	.	.	8b/L)	8f#\L]	.	8bb\L)	.	8bb\L)	.
.	.	.	.	16d#\	.	16f# 16B/	.	.	.	.	.	.	.	.	.	.	.	.	.	.	.	.	.	.	.	.	.	.	.
!LO:SIC:s=8C/L	!	!	!	!	!	!	!	!	!	!	!	!	!	!	!	!	!	!	!	!	!	!	!	!	!	!	!	!	!
8Re/L	.	8BB\J	.	16d#\	.	16f# 16B/	.	8ff# 8f#'\	.	8BB/	.	.	.	.	.	8f#'/	8d#\L	.	8BB\L	.	8ff#L 8b\	.	8dd#'/	8f#\	.	8ff#'\J	.	8ff#'\J	.
.	.	.	.	16d#\JJ	.	16f#JJ 16B/	.	.	.	.	.	.	.	.	.	.	.	.	.	.	.	.	.	.	.	.	.	.	.
.	.	.	.	.	.	.	.	(8qaa# 8qa#/	.	.	.	.	.	.	.	.	.	.	.	.	.	.	.	.	.	(8qaa#/	.	(8qaa#/	.
!LO:SIC:s=8C/	!	!	!	!	!	!	!	!	!	!	!	!	!	!	!	!	!	!	!	!	!	!	!	!	!	!	!	!	!
8Re/	.	8E\L	sf	16e\LL	sf	16gLL 16B/	sf	8gg 8g\)	.	8E/	.	.	.	.	.	8g'/	8e\	.	8E\	.	8gg 8b\	.	8ee'/	8g\	.	8gg'\L)	.	8gg'\L)	.
.	.	.	.	16e\	.	16g 16B/	.	.	.	.	.	.	.	.	.	.	.	.	.	.	.	.	.	.	.	.	.	.	.
!LO:SIC:s=8C/J	!	!	!	!	!	!	!	!	!	!	!	!	!	!	!	!	!	!	!	!	!	!	!	!	!	!	!	!	!
8Re/J	.	8G\J	.	16e\	.	16g 16B/	.	8eeJ 8e'\	.	8G/J	.	.	.	.	.	8e'/J	8e\J	.	8G\J	.	8ggJ 8b\	.	8ee'/J	8g\J	.	8ee'\J	.	8ee'\J	.
.	.	.	.	16e\JJ	.	16gJJ 16B/	.	.	.	.	.	.	.	.	.	.	.	.	.	.	.	.	.	.	.	.	.	.	.
*	*	*	*	*	*	*	*	*	*	*	*	*	*	*	*	*v	*v	*	*	*	*	*	*v	*v	*	*	*	*	*
=41	=41	=41	=41	=41	=41	=41	=41	=41	=41	=41	=41	=41	=41	=41	=41	=41	=41	=41	=41	=41	=41	=41	=41	=41	=41	=41	=41
!	!	!LO:TX:t=P:problem:mixed beam	!	!	!	!	!	!	!	!	!	!	!	!	!	!	!	!	!	!	!	!	!	!	!	!	!
!LO:SIC:s=4C/	!	!	!	!	!	!	!	!	!	!	!	!	!	!	!	!	!	!	!	!	!	!	!	!	!	!	!
4Re/	.	8BB\L	.	8d#X\L	.	8f#L 8B/	.	8bbL 8b\	.	8B\L	.	2.r	.	2.ryy	.	8b 8d#X/	.	8B\L	.	8ff#XL 8b\	.	8dd#XL 8f#/	.	8bb\L	.	8bb\L	.
.	.	16r	.	16r	.	16r	.	16r	.	16r	.	.	.	.	.	16r	.	16r	.	16r	.	16r	.	16r	.	16r	.
!	!	!	!	!	!	!	!	!LO:TX:a:t=|	!	!	!	!	!	!	!	!	!	!	!	!	!	!	!	!	!	!	!
.	.	16B\Jk	.	16f#Jk 16B\	.	16dd#XJk 16f#/	.	16bbJk 16b\	.	16B\Jk	.	.	.	.	.	16b 16d#/	.	16B\Jk	.	16ff#Jk 16b\	.	16bJk 16d#X/	.	16b\Jk	.	16bb\Jk	.
!	!	!	!	!	!	!	!	!LO:TX:a:t=|	!	!	!	!	!	!	!	!	!	!	!	!	!	!	!	!	!	!	!
!LO:SIC:s=4C/	!	!	!	!	!	!	!	!	!	!	!	!	!	!	!	!	!	!	!	!	!	!	!	!	!	!	!
4Re/	.	8.F#\L	.	8.f#L 8.B\	.	8.dd#L 8.f#/	.	8.ddd#XL 8.dd#X\	.	8.F#\L	.	.	.	.	.	8.bL 8.d#/	.	8.F#\L	.	8.ff#L 8.b\	.	8.bL 8.d#/	.	8.dd#X\L	.	8.ddd#X\L	.
!	!	!	!	!	!	!	!	!LO:TX:a:t=|	!	!	!	!	!	!	!	!	!	!	!	!	!	!	!	!	!	!	!
.	.	16F#\Jk	.	16f#Jk 16B\	.	16dd#Jk 16f#/	.	16ddd#Jk 16dd#\	.	16F#\Jk	.	.	.	.	.	16bJk 16d#/	.	16F#\Jk	.	16ff#Jk 16b\	.	16bJk 16d#/	.	16dd#\Jk	.	16ddd#\Jk	.
!	!	!	!	!	!	!	!	!LO:TX:a:t=|	!	!	!	!	!	!	!	!	!	!	!	!	!	!	!	!	!	!	!
!LO:SIC:s=4C/	!	!	!	!	!	!	!	!	!	!	!	!	!	!	!	!	!	!	!	!	!	!	!	!	!	!	!
4Re/	.	8.D#X\L	.	8.f#L 8.B\	.	8.dd#L 8.f#/	.	8.fff#L 8.ff#\	.	8.D#X\L	.	.	.	.	.	8.bL 8.d#/	.	8.D#X\L	.	8.ff#L 8.b\	.	8.dd#L 8.f#/	.	8.ff#\L	.	8.fff#\L	.
!	!	!	!	!	!	!	!	!LO:TX:a:t=|	!	!	!	!	!	!	!	!	!	!	!	!	!	!	!	!	!	!	!
.	.	16D#\Jk	.	16f#Jk 16B\	.	16dd#Jk 16f#/	.	16fff#Jk 16ff#\	.	16D#\Jk	.	.	.	.	.	16bJk 16d#/	.	16D#\Jk	.	16ff#Jk 16b\	.	16dd#Jk 16f#/	.	16ff#\Jk	.	16fff#\Jk	.
!!LO:PB:g=original
=42	=42	=42	=42	=42	=42	=42	=42	=42	=42	=42	=42	=42	=42	=42	=42	=42	=42	=42	=42	=42	=42	=42	=42	=42	=42	=42	=42
*	*	*	*	*	*	*	*	*	*	*	*	*	*	*	*	*	*	*	*	*	*	*^	*	*	*	*	*
!LO:SIC:s=8C/	!	!	!	!	!	!	!	!	!	!	!	!	!	!	!	!	!	!	!	!	!	!	!	!	!	!	!	!
8Re/	.	8BB/	.	8dd#X 8f# 8B\	.	8bb 8dd#X 8f#\	.	8bbb 8bb\	.	8BB/	.	2.r	.	2.ryy	.	8b 8d#X/	.	8BB/	.	8ff#X 8b\	.	8ff# 8dd#X/	4.ryy	.	8bb\	.	8bb\	.
*	*	*	*	*	*	*	*	*	*	*	*	*	*	*	*	*	*	*clefC4	*	*	*	*	*	*	*	*	*	*
8r	.	8r	.	8r	.	8r	.	8r	.	8r	.	.	.	.	.	8r	.	(8a^\L	.	8r	.	(8ff#L 8dd#^/	.	.	8r	.	(8ccc^\L	.
4r	.	4r	.	4r	.	4r	.	4r	.	4r	.	.	.	.	.	4r	.	8g\J)	.	4r	.	8ee/J)	.	.	4r	.	8bb\J)	.
.	.	.	.	.	.	.	.	.	.	.	.	.	.	.	.	.	.	(8f#^\L	.	.	.	(8dd#X^/L	4b\	.	.	.	(8aa^\L	.
4r	.	4r	.	4r	.	4r	.	4r	.	4r	.	.	.	.	.	4r	.	8e\J)	.	4r	.	8ee/J)	.	.	4r	.	8gg\J)	.
!!LO:TX:b:Bi:t=d'al sego al fine \net Polonez da capo.\nal fine\ne poi la Coda
!!LO:TX:a:Bi:t=[segno]:problem:znak segno na kresce taktowej
.	.	.	.	.	.	.	.	.	.	.	.	.	.	.	.	.	.	8B|>\	.	.	.	8dd#'/	8b\	.	.	.	8ff#|>\	.
!!LO:PB:g=original
*	*	*	*	*	*	*	*	*	*	*	*	*	*	*	*	*	*	*	*	*	*	*v	*v	*	*	*	*	*
*	*	*	*	*	*	*	*	*	*	*	*	*	*	*	*	*	*	*clefF4	*	*	*	*	*	*	*	*	*
=43||	=43||	=43||	=43||	=43||	=43||	=43||	=43||	=43||	=43||	=43||	=43||	=43||	=43||	=43||	=43||	=43||	=43||	=43||	=43||	=43||	=43||	=43||	=43||	=43||	=43||	=43||	=43||
*k[]	*	*k[]	*	*k[]	*	*k[]	*	*k[]	*	*k[]	*	*k[]	*	*k[]	*	*k[]	*	*k[]	*	*k[]	*	*k[]	*	*k[]	*	*k[]	*
*	*	*	*	*	*	*	*	*	*	*	*	*	*	*	*	*	*	*	*	*	*	*	*	*	*	*	*
!	!	!	!	!	!	!	!	!	!	!	!	!	!	!	!	!	!	!	!	!	!	!	!	!	!	!LO:TX:a:t=Coda.	!
!	!	!	!	!	!	!LO:TX:a:t=col 1°	!	!	!	!	!	!	!	!	!	!	!	!	!	!	!	!	!	!	!	!LO:TX:a:t=col V°.1°.	!
!LO:SIC:s=4C/	!	!	!	!	!	!	!	!	!	!	!	!	!	!	!	!	!	!	!	!	!	!	!	!	!	!	!
4Re/	.	8C'/L	f	8ccL 8e 8G\	f	8cccL 8ee 8g'\	f	8cccL 8ee 8g'\	f	8C/L	.	8C/L	.	2.ryy	.	8ccL 8e/	f	8C'/L	.	8ccL 8e/	f	8cc'\L	f	8ccc'\L	f	8cccL 8ee 8g'\	f
.	.	16C'/L	.	16c'\L	.	16ccc'\L	.	16ccc'\L	.	16C/L	.	16C/L	.	.	.	16ccL 16e/	.	16C'/L	.	16ccL 16e/	.	16cc'\L	.	16ccc'\L	.	16ccc'\L	.
.	.	16C'/JJ	.	16c'\JJ	.	16ccc'\JJ	.	16ccc'\JJ	.	16C/JJ	.	16C/JJ	.	.	.	16ccJJ 16e/	.	16C'/JJ	.	16ccJJ 16e/	.	16cc'\JJ	.	16ccc'\JJ	.	16ccc'\JJ	.
4r	.	(16C\LL	.	(16c\LL	.	(16ccc\LL	.	(16ccc\LL	.	8C/	.	8C/	.	.	.	8cc 8e/	.	(16C\LL	.	8cc 8e/	.	(16cc\LL	.	(16ccc\LL	.	(16ccc\LL	.
.	.	16D\)	.	16d\)	.	16bb\)	.	16bb\)	.	.	.	.	.	.	.	.	.	16D\)	.	.	.	16b\)	.	16bb\)	.	16bb\)	.
.	.	16E'\	.	16e'\	.	16aa'\	.	16aa'\	.	8r	.	8r	.	.	.	8r	.	16E'\	.	8r	.	16a'\	.	16aa'\	.	16aa'\	.
.	.	16F'\JJ	.	16f'\JJ	.	16gg'\JJ	.	16gg'\JJ	.	.	.	.	.	.	.	.	.	16F'\JJ	.	.	.	16g'\JJ	.	16gg'\JJ	.	16gg'\JJ	.
4r	.	16G'\LL	.	16g'\LL	.	16ff'\LL	.	16ff'\LL	.	4r	.	4r	.	.	.	4r	.	16G'\LL	.	4r	.	16f'/LL	.	16ff'\LL	.	16ff'\LL	.
.	.	16A'\	.	16a'\	.	16ee'\	.	16ee'\	.	.	.	.	.	.	.	.	.	16A'\	.	.	.	16e'/	.	16ee'\	.	16ee'\	.
.	.	16B'\	.	16b'\	.	16dd'\	.	16dd'\	.	.	.	.	.	.	.	.	.	16B'\	.	.	.	16d'/	.	16dd'\	.	16dd'\	.
.	.	16c'\JJ	.	16cc'\JJ	.	16cc'\JJ	.	16cc'\JJ	.	.	.	.	.	.	.	.	.	16c'\JJ	.	.	.	16c'/JJ	.	16cc'\JJ	.	16cc'\JJ	.
=44	=44	=44	=44	=44	=44	=44	=44	=44	=44	=44	=44	=44	=44	=44	=44	=44	=44	=44	=44	=44	=44	=44	=44	=44	=44	=44	=44
!LO:SIC:s=4C/	!	!	!	!	!	!	!	!	!	!	!	!	!	!	!	!	!	!	!	!	!	!	!	!	!	!	!
4Re/	.	8C'/L	f	8ccL 8e 8G\	f	8cccL 8ee 8g'\	.	8eee'\L	.	8C/L	.	8C/L	.	2.ryy	.	8eeL 8cc\	.	8C'/L	.	8ccL 8e/	f	8eeL 8cc'\	.	8ccc'\L	f	8eee'\L	.
.	.	16C'/L	.	16c'\L	.	16ccc'\L	.	16eee'\L	.	16C/L	.	16C/L	.	.	.	16eeL 16cc\	.	16C'/L	.	16ccL 16e/	.	16eeL 16cc'\	.	16ccc'\L	.	16eee'\L	.
.	.	16C'/JJ	.	16c'\JJ	.	16ccc'\JJ	.	16eee'\JJ	.	16C/JJ	.	16C/JJ	.	.	.	16eeJJ 16cc\	.	16C'/JJ	.	16ccJJ 16e/	.	16eeJJ 16cc'\	.	16ccc'\JJ	.	16eee'\JJ	.
4r	.	(16C\LL	.	(16c\LL	.	(16ccc\LL	.	(16eee\LL	.	8C/	.	8C/	.	.	.	8ee 8cc\	.	(16C\LL	.	8cc 8e/	.	(16eeLL 16cc\	.	(16ccc\LL	.	(16eee\LL	.
.	.	16D\)	.	16d\)	.	16bb\)	.	16ddd\)	.	.	.	.	.	.	.	.	.	16D\)	.	.	.	16dd 16b\)	.	16bb\)	.	16ddd\)	.
.	.	16E'\	.	16e'\	.	16aa'\	.	16ccc'\	.	8r	.	8r	.	.	.	8r	.	16E'\	.	8r	.	16cc 16a'\	.	16aa'\	.	16ccc'\	.
.	.	16F'\JJ	.	16f'\JJ	.	16gg'\JJ	.	16bb'\JJ	.	.	.	.	.	.	.	.	.	16F'\JJ	.	.	.	16bJJ 16g'\	.	16gg'\JJ	.	16bb'\JJ	.
4r	.	16G'\LL	.	16g'\LL	.	16ff'\LL	.	16aa'\LL	.	4r	.	4r	.	.	.	4r	.	16G'\LL	.	4r	.	16aLL 16f'/	.	16ff'\LL	.	16aa'\LL	.
.	.	16A'\	.	16a'\	.	16ee'\	.	16gg'\	.	.	.	.	.	.	.	.	.	16A'\	.	.	.	16g 16e'/	.	16ee'\	.	16gg'\	.
.	.	16B'\	.	16b'\	.	16dd'\	.	16ff'\	.	.	.	.	.	.	.	.	.	16B'\	.	.	.	16f 16d'/	.	16dd'\	.	16ff'\	.
.	.	16c'\JJ	.	16cc'\JJ	.	16cc'\JJ	.	16ee'\JJ	.	.	.	.	.	.	.	.	.	16c'\JJ	.	.	.	16eJJ 16c'/	.	16cc'\JJ	.	16ee'\JJ	.
=45	=45	=45	=45	=45	=45	=45	=45	=45	=45	=45	=45	=45	=45	=45	=45	=45	=45	=45	=45	=45	=45	=45	=45	=45	=45	=45	=45
!LO:SIC:s=4C/	!	!	!	!	!	!	!	!	!	!	!	!	!	!	!	!	!	!	!	!	!	!	!	!	!	!	!
4Re/	.	8C'/L	f	8eL 8G 8C/	.	8eee'\L	.	8eee'\L	.	8C/L	.	8C/L	.	2.ryy	.	8ggL 8ee\	.	8E'\L	.	8ccL 8e/	f	8ggL 8ee'\	.	8eee'\L	.	8eee'\L	.
.	.	16C'/L	.	16e'/L	.	16eee'\L	.	16eee'\L	.	16C/L	.	16C/L	.	.	.	16ggL 16ee\	.	16E'\L	.	16ccL 16e/	.	16ggL 16ee'\	.	16eee'\L	.	16eee'\L	.
.	.	16C'/JJ	.	16e'/JJ	.	16eee'\JJ	.	16eee'\JJ	.	16C/JJ	.	16C/JJ	.	.	.	16ggJJ 16ee\	.	16E'\JJ	.	16ccJJ 16e/	.	16ggJJ 16ee'\	.	16eee'\JJ	.	16eee'\JJ	.
4r	.	(16C\LL	.	(16e\LL	.	(16eee\LL	.	(16eee\LL	.	8C/	.	8C/	.	.	.	8gg 8ee\	.	(16E\LL	.	8cc 8e/	.	(16ggLL 16ee\	.	(16eee\LL	.	(16eee\LL	.
.	.	16D\)	.	16f\)	.	16ddd\)	.	16ddd\)	.	.	.	.	.	.	.	.	.	16F\)	.	.	.	16ff 16dd\)	.	16ddd\)	.	16ddd\)	.
.	.	16E'\	.	16g'\	.	16ccc'\	.	16ccc'\	.	8r	.	8r	.	.	.	8r	.	16G'\	.	8r	.	16ee 16cc'\	.	16ccc'\	.	16ccc'\	.
.	.	16F'\JJ	.	16a'\JJ	.	16bb'\JJ	.	16bb'\JJ	.	.	.	.	.	.	.	.	.	16A'\JJ	.	.	.	16ddJJ 16b'\	.	16bb'\JJ	.	16bb'\JJ	.
4r	.	16G'\LL	.	16b'\LL	.	16aa'\LL	.	16aa'\LL	.	4r	.	4r	.	.	.	4r	.	16B'\LL	.	4r	.	16ccLL 16a'/	.	16aa'\LL	.	16aa'\LL	.
.	.	16A'\	.	16cc'\	.	16gg'\	.	16gg'\	.	.	.	.	.	.	.	.	.	16c'\	.	.	.	16b 16g'/	.	16gg'\	.	16gg'\	.
.	.	16B'\	.	16dd'\	.	16ff'\	.	16ff'\	.	.	.	.	.	.	.	.	.	16d'\	.	.	.	16a 16f'/	.	16ff'\	.	16ff'\	.
.	.	16c'\JJ	.	16ee'\JJ	.	16ee'\JJ	.	16ee'\JJ	.	.	.	.	.	.	.	.	.	16e'\JJ	.	.	.	16gJJ 16e'/	.	16ee'\JJ	.	16ee'\JJ	.
!!LO:PB:g=original
=46	=46	=46	=46	=46	=46	=46	=46	=46	=46	=46	=46	=46	=46	=46	=46	=46	=46	=46	=46	=46	=46	=46	=46	=46	=46	=46	=46
*	*	*	*	*	*	*	*	*	*	*	*	*	*	*	*	*	*	*	*	*^	*	*^	*	*	*	*	*
4r	.	8F\	.	8a 8f\	.	8ff\	.	8aa\	.	8F\	.	8C/	.	2.ryy	.	8a 8f/	.	8A\	.	8cc/	8cc\	.	8a 8f/	2ryy	.	8ff\	.	8aa\	.
.	.	8r	.	8r	.	8r	.	8r	.	8r	.	8r	.	.	.	8r	.	8r	.	8r	8ryy	.	8r	.	.	8r	.	8r	.
4r	.	8G\	.	8g 8c\	.	8ee\	.	8gg\	.	8G\	.	8C/	.	.	.	8g 8e/	.	8G\	.	8ee 8cc/	2ryy	.	8cc 8e/	.	.	8ee\	.	8gg\	.
.	.	8r	.	8r	.	8r	.	8r	.	8r	.	8r	.	.	.	8r	.	8r	.	8r	.	.	8r	.	.	8r	.	8r	.
!LO:SIC:s=4C/	!	!	!	!	!	!	!	!	!	!	!	!	!	!	!	!	!	!	!	!	!	!	!	!	!	!	!	!	!
4Re/	.	4GG/	.	4g 4B\	.	4dd 4f/	.	4bb\	.	4GG/	.	32C/LLL	.	.	.	4b 4d/	.	4B\	.	4dd 4g/	.	.	4b/	4f\	.	4ff\	.	4bb\	.
.	.	.	.	.	.	.	.	.	.	.	.	32C/	.	.	.	.	.	.	.	.	.	.	.	.	.	.	.	.	.
.	.	.	.	.	.	.	.	.	.	.	.	32C/	.	.	.	.	.	.	.	.	.	.	.	.	.	.	.	.	.
.	.	.	.	.	.	.	.	.	.	.	.	32C/	.	.	.	.	.	.	.	.	.	.	.	.	.	.	.	.	.
.	.	.	.	.	.	.	.	.	.	.	.	32C/	.	.	.	.	.	.	.	.	.	.	.	.	.	.	.	.	.
.	.	.	.	.	.	.	.	.	.	.	.	32C/	.	.	.	.	.	.	.	.	.	.	.	.	.	.	.	.	.
.	.	.	.	.	.	.	.	.	.	.	.	32C/	.	.	.	.	.	.	.	.	.	.	.	.	.	.	.	.	.
.	.	.	.	.	.	.	.	.	.	.	.	32C/JJJ	.	.	.	.	.	.	.	.	.	.	.	.	.	.	.	.	.
*	*	*	*	*	*	*	*	*	*	*	*	*	*	*	*	*	*	*	*	*	*	*	*v	*v	*	*	*	*	*
=47	=47	=47	=47	=47	=47	=47	=47	=47	=47	=47	=47	=47	=47	=47	=47	=47	=47	=47	=47	=47	=47	=47	=47	=47	=47	=47	=47	=47
!	!	!	!	!	!	!	!	!	!	!	!	!	!	!	!	!	!	!	!	!	!	!	!	!	!	!	!LO:TX:a:t=col V°.1°.	!
!LO:SIC:s=4C/	!	!	!	!	!	!	!	!	!	!	!	!	!	!	!	!	!	!	!	!	!	!	!	!	!	!	!	!
4Re/	.	4.C/	.	8gL 8c\	.	8ccL 8e/	.	8ccc'\L	.	4.C/	.	8C/L	.	2.ryy	.	8ccL 8e/	.	8c'\L	.	8ccL 8e/	4ryy	.	8ccL 8e'/	.	2.ryy	.	8ccc'\L	.
.	.	.	.	16gL 16c\	.	16ccL 16e/	.	(16ccc\L	.	.	.	16C/L	.	.	.	16ccL 16e/	.	(16c\L	.	16eeL 16cc/	.	.	(16cc/L	.	.	.	(16ccc\L	.
.	.	.	.	16gJJ 16c\	.	16ccJJ 16e/	.	16eee\JJ)	.	.	.	16C/JJ	.	.	.	16ccJJ 16e/	.	16e\JJ)	.	16eeJJ 16cc/	.	.	16ee/JJ)	.	.	.	16eee\JJ)	.
4r	.	.	.	8gL 8c\	.	8ccL 8e/	.	4.gg\	.	.	.	8C/L	.	.	.	8ccL 8e/	.	4.G\	.	8ee/L	8cc\L	.	4.g/	.	.	.	4.gg\	.
.	.	8C/L	.	8g 8c\	.	8cc 8e/	.	.	.	8C/L	.	8C/	.	.	.	8cc 8e/	.	.	.	8ee/	8cc\	.	.	.	.	.	.	.
4r	.	8E/	.	8g 8c\	.	8cc 8e/	.	.	.	8E/	.	8C/	.	.	.	8cc 8e/	.	.	.	8ee/	8cc\	.	.	.	.	.	.	.
.	.	8C/J	.	8g#XJ 8c\	.	8ccJ 8e/	.	8gg#X\	.	8C/J	.	8C/J	.	.	.	8ccJ 8e/	.	8G#X\	.	8ee/J	8cc\J	.	8g#X/	.	.	.	8gg#X\	.
*	*	*	*	*	*	*	*	*	*	*	*	*	*	*	*	*	*	*	*	*v	*v	*	*	*	*	*	*	*
=48	=48	=48	=48	=48	=48	=48	=48	=48	=48	=48	=48	=48	=48	=48	=48	=48	=48	=48	=48	=48	=48	=48	=48	=48	=48	=48	=48
*	*	*	*	*	*	*	*	*	*	*	*	*	*	*	*	*^	*	*	*	*	*	*	*	*	*	*	*
!LO:SIC:s=4C/	!	!	!	!	!	!	!	!	!	!	!	!	!	!	!	!	!	!	!	!	!	!	!	!	!	!	!	!
4Re/	.	4.F\	.	8aL 8f\	.	8ddL 8f/	.	(16aa\LL	.	4.F\	.	2.r	.	2.ryy	.	8aL 8f/	4ryy	.	(16A\LL	.	8ffL 8dd\	.	(16a/LL	.	2.ryy	.	(16aa\LL	.
.	.	.	.	.	.	.	.	16gg#X\	.	.	.	.	.	.	.	.	.	.	16G#X\	.	.	.	16g#X/	.	.	.	16gg#X\	.
.	.	.	.	16aL 16f\	.	16ddL 16f/	.	16aa\	.	.	.	.	.	.	.	16aL 16f/	.	.	16A\	.	16ffL 16dd\	.	16a/	.	.	.	16aa\	.
.	.	.	.	16aJJ 16f\	.	16ddJJ 16f/	.	16ddd\JJ)	.	.	.	.	.	.	.	16aJJ 16f/	.	.	16d\JJ)	.	16ffJJ 16dd\	.	16dd/JJ)	.	.	.	16ddd\JJ)	.
4r	.	.	.	8aL 8f\	.	8ddL 8f/	.	4.fff\	.	.	.	.	.	.	.	8a/L	8f\L	.	4.f\	.	8ffL 8dd\	.	4.ff/	.	.	.	4.fff\	.
.	.	8F\L	.	8a 8f\	.	8dd 8f/	.	.	.	8F\L	.	.	.	.	.	8a/	8f\	.	.	.	8ff 8dd\	.	.	.	.	.	.	.
4r	.	8A\	.	8a 8f\	.	8dd 8f/	.	.	.	8A\	.	.	.	.	.	8a/	8f\	.	.	.	8ff 8dd\	.	.	.	.	.	.	.
.	.	8F\J	.	8aJ 8f\	.	8ddJ 8f/	.	8ddd\	.	8F\J	.	.	.	.	.	8a/J	8f\J	.	8d\	.	8ffJ 8dd\	.	8dd/	.	.	.	8ddd\	.
=49	=49	=49	=49	=49	=49	=49	=49	=49	=49	=49	=49	=49	=49	=49	=49	=49	=49	=49	=49	=49	=49	=49	=49	=49	=49	=49	=49	=49
!LO:SIC:s=4C/	!	!	!	!	!	!	!	!	!	!	!	!	!	!	!	!	!	!	!	!	!	!	!	!	!	!	!	!
4Re/	.	4.G\	.	8fL 8G/	.	8bL 8d/	.	8bb\	.	4.G\	.	8GG/L	.	2.ryy	.	8b/L	8f\L	.	8B\	.	8ddL 8g/	.	8b/	.	2.ryy	.	8bb\	.
!	!	!	!	!	!	!	!	!LO:TX:a:t=|	!	!	!	!	!	!	!	!	!	!	!	!	!	!	!	!	!	!	!LO:TX:a:t=|	!
.	.	.	.	16fL 16G/	.	16bL 16d/	.	4bb\	.	.	.	16GG/L	.	.	.	16b/L	16f\L	.	4B^\	.	16ddL 16g/	.	4b^/	.	.	.	4bb\	.
.	.	.	.	16fJJ 16G/	.	16bJJ 16d/	.	.	.	.	.	16GG/JJ	.	.	.	16b/JJ	16f\JJ	.	.	.	16ddJJ 16g/	.	.	.	.	.	.	.
4r	.	.	.	8fL 8G/	.	8bL 8d/	.	.	.	.	.	8GG/L	.	.	.	8b/L	8f\L	.	.	.	8ddL 8g/	.	.	.	.	.	.	.
!	!	!LO:TX:t=P:problem:mixed beam	!	!	!	!	!	!	!	!LO:TX:t=P:problem:mixed beam	!	!	!	!	!	!	!	!	!	!	!	!	!	!	!	!	!	!
.	.	8GG/L	.	8f 8G/	.	8b 8d/	.	(16ddd\LL	.	8GG/L	.	8GG/	.	.	.	8b/	8f\	.	16d\LL	.	8dd 8g/	.	(16dd/LL	.	.	.	(16ddd\LL	.
.	.	.	.	.	.	.	.	16ccc\JJ)	.	.	.	.	.	.	.	.	.	.	16c\JJ	.	.	.	16cc/JJ)	.	.	.	16ccc\JJ)	.
4r	.	8G/	.	8f 8G/	.	8b 8d/	.	16bb'\LL	.	8G/	.	8GG/	.	.	.	8b/	8f\	.	16B\LL	.	8dd 8g/	.	16b'/LL	.	.	.	16bb'\LL	.
.	.	.	.	.	.	.	.	16aa'\	.	.	.	.	.	.	.	.	.	.	16A\	.	.	.	16a'/	.	.	.	16aa'\	.
.	.	8GG/J	.	8fJ 8G/	.	8bJ 8d/	.	16gg'\	.	8GG/J	.	8GG/J	.	.	.	8b/J	8f\J	.	16G\	.	8ddJ 8g/	.	16g'/	.	.	.	16gg'\	.
.	.	.	.	.	.	.	.	16ff'\JJ	.	.	.	.	.	.	.	.	.	.	16F\JJ	.	.	.	16f'/JJ	.	.	.	16ff'\JJ	.
!!LO:PB:g=original
*	*	*	*	*	*	*	*	*	*	*	*	*	*	*	*	*v	*v	*	*	*	*	*	*	*	*	*	*	*
=50	=50	=50	=50	=50	=50	=50	=50	=50	=50	=50	=50	=50	=50	=50	=50	=50	=50	=50	=50	=50	=50	=50	=50	=50	=50	=50	=50
!LO:SIC:s=4C/	!	!	!	!	!	!	!	!	!	!	!	!	!	!	!	!	!	!	!	!	!	!	!	!	!	!	!
4Re/	.	4.C/	.	8eL 8G\	.	8ccL 8e/	.	(16ee\LL	.	4.C/	.	8C/L	.	2.ryy	.	8ccL 8e/	.	(16E\LL	.	8ccL 8e/	.	(16e/LL	.	16e/LL	.	(16ee\LL	.
.	.	.	.	.	.	.	.	16gg\	.	.	.	.	.	.	.	.	.	16G\	.	.	.	16g/	.	16g/	.	16gg\	.
.	.	.	.	16gL 16c\	.	16ccL 16e/	.	16ccc\	.	.	.	16C/L	.	.	.	16ccL 16e/	.	16c\	.	16ccL 16e/	.	16cc/	.	16cc/	.	16ccc\	.
.	.	.	.	16gJJ 16c\	.	16ccJJ 16e/	.	16eee\JJ)	.	.	.	16C/JJ	.	.	.	16ccJJ 16e/	.	16e\JJ)	.	16ccJJ 16e/	.	16ee/JJ)	.	16ee/JJ	.	16eee\JJ)	.
4r	.	.	.	8gL 8c\	.	8ccL 8e/	.	(4.ccc\	.	.	.	8C/L	.	.	.	8ccL 8e/	.	4.c\	.	8ccL 8e/	.	(4.cc\	.	4.cc\	.	(4.ccc\	.
.	.	8c\L	.	8g 8c\	.	8cc 8e/	.	.	.	8c\L	.	8C/	.	.	.	8cc 8e/	.	.	.	8cc 8e/	.	.	.	.	.	.	.
4r	.	8G\	.	8g 8c\	.	8cc 8e/	.	.	.	8G\	.	8C/	.	.	.	8cc 8e/	.	.	.	8cc 8e/	.	.	.	.	.	.	.
.	.	8E\J	.	8gJ 8c\	.	8ccJ 8e/	.	8gg\)	.	8E\J	.	8C/J	.	.	.	8ccJ 8e/	.	8G\	.	8ccJ 8e/	.	8g/)	.	8g/	.	8gg\)	.
=51	=51	=51	=51	=51	=51	=51	=51	=51	=51	=51	=51	=51	=51	=51	=51	=51	=51	=51	=51	=51	=51	=51	=51	=51	=51	=51	=51
!LO:SIC:s=4C/	!	!	!	!	!	!	!	!	!	!	!	!	!	!	!	!	!	!	!	!	!	!	!	!	!	!	!
4Re/	.	4.C/	.	8gL 8c\	.	8ccL 8e/	.	8ccc'\L	.	4.C/	.	8C/L	.	2.ryy	.	8ccL 8e/	.	8c'\L	.	8ccL 8e/	.	8cc'\L	.	8cc'\L	.	8ccc'\L	.
.	.	.	.	16gL 16c\	.	16ccL 16e/	.	(16ccc\L	.	.	.	16C/L	.	.	.	16ccL 16e/	.	(16c\L	.	16eeL 16cc/	.	(16cc\L	.	(16cc\L	.	(16ccc\L	.
.	.	.	.	16gJJ 16c\	.	16ccJJ 16e/	.	16eee\JJ)	.	.	.	16C/JJ	.	.	.	16ccJJ 16e/	.	16e\JJ)	.	16eeJJ 16cc/	.	16ee\JJ)	.	16ee\JJ)	.	16eee\JJ)	.
4r	.	.	.	8gL 8c\	.	8ccL 8e/	.	4.gg\	.	.	.	8C/L	.	.	.	8ccL 8e/	.	4.G\	.	8eeL 8cc\	.	4.g/	.	4.g/	.	4.gg\	.
.	.	8C/L	.	8g 8c\	.	8cc 8e/	.	.	.	8C/L	.	8C/	.	.	.	8cc 8e/	.	.	.	8ee 8cc\	.	.	.	.	.	.	.
4r	.	8E/	.	8g 8c\	.	8cc 8e/	.	.	.	8E/	.	8C/	.	.	.	8cc 8e/	.	.	.	8ee 8cc\	.	.	.	.	.	.	.
.	.	8C/J	.	8gJ 8c\	.	8ccJ 8e/	.	8gg#X\	.	8C/J	.	8C/J	.	.	.	8ccJ 8e/	.	8G#X\	.	8eeJ 8cc\	.	8g#X/	.	8g#X/	.	8gg#X\	.
=52	=52	=52	=52	=52	=52	=52	=52	=52	=52	=52	=52	=52	=52	=52	=52	=52	=52	=52	=52	=52	=52	=52	=52	=52	=52	=52	=52
*	*	*	*	*	*	*	*	*	*	*	*	*	*	*	*	*	*	*	*	*^	*	*	*	*	*	*	*
!LO:SIC:s=4C/	!	!	!	!	!	!	!	!	!	!	!	!	!	!	!	!	!	!	!	!	!	!	!	!	!	!	!	!
4Re/	.	4.F\	.	8aL 8f\	.	8ddL 8f/	.	(16aa\LL	.	4.F\	.	4r	.	2.ryy	.	8aL 8f/	.	(16A\LL	.	8dd/L	8dd\L	.	(16a/LL	.	(16a/LL	.	(16aa\LL	.
.	.	.	.	.	.	.	.	16gg#X\	.	.	.	.	.	.	.	.	.	16G#X\	.	.	.	.	16g#X/	.	16g#X/	.	16gg#X\	.
.	.	.	.	16aL 16f\	.	16ddL 16f/	.	16aa\	.	.	.	.	.	.	.	16aL 16f/	.	16A\	.	16dd/L	16dd\L	.	16a/	.	16a/	.	16aa\	.
.	.	.	.	16aJJ 16f\	.	16ddJJ 16f/	.	16ddd\JJ)	.	.	.	.	.	.	.	16aJJ 16f/	.	16d\JJ)	.	16dd/JJ	16dd\JJ	.	16dd/JJ)	.	16dd/JJ)	.	16ddd\JJ)	.
4r	.	.	.	8aL 8f\	.	8ddL 8f/	.	4.fff\	.	.	.	4r	.	.	.	8aL 8f/	.	4.f\	.	8dd/L	8dd\L	.	4.ff\	.	4.ff\	.	4.fff\	.
.	.	8F\L	.	8aJ 8f\	.	8ddJ 8f/	.	.	.	8F\L	.	.	.	.	.	8a 8f/	.	.	.	8dd/J	8dd\J	.	.	.	.	.	.	.
4r	.	8A\	.	8aL 8f\	.	8ddL 8f/	.	.	.	8A\	.	8r	.	.	.	8a 8f/	.	.	.	8dd/L	8dd\L	.	.	.	.	.	.	.
.	.	8F#X\J	.	8aJ 8f#X\	.	8ccJ 8d#X/	.	8aaa^\	.	8F#X\J	.	8C/	.	.	.	8aJ 8d#X/	.	8A\	.	8dd#X/J	8cc\J	.	8aa\	.	8aa\	.	8aaa^\	.
=53	=53	=53	=53	=53	=53	=53	=53	=53	=53	=53	=53	=53	=53	=53	=53	=53	=53	=53	=53	=53	=53	=53	=53	=53	=53	=53	=53	=53
!	!	!LO:TX:t=P:problem:mixed beam	!	!LO:TX:t=P:problem:mixed beam	!	!LO:TX:t=P:problem:mixed beam	!	!	!	!	!	!	!	!	!	!	!	!LO:TX:t=P:problem:mixed beam	!	!	!	!	!	!	!	!	!	!
!LO:SIC:s=4C/	!	!	!	!	!	!	!	!	!	!	!	!	!	!	!	!	!	!	!	!	!	!	!	!	!	!	!	!
4Re/	.	16G\LL	.	16g\LL	.	16ccLL 16e/	.	8ggg\L	.	4G\	.	4C/	.	2.ryy	.	4cc 4e/	.	16G/LL	.	4ee/	4cc\	.	8gg\L	.	8gg\L	.	8ggg\L	.
.	.	16GG/	.	16G/	.	16gg\	.	.	.	.	.	.	.	.	.	.	.	16GG/	.	.	.	.	.	.	.	.	.	.
.	.	16AA/	.	16A/	.	16ff\	.	16fff\L	.	.	.	.	.	.	.	.	.	16AA/	.	.	.	.	16ff\L	.	16ff\L	.	16fff\L	.
.	.	16BB/JJ	.	16B/JJ	.	16ee\JJ	.	16eee\JJ	.	.	.	.	.	.	.	.	.	16BB/JJ	.	.	.	.	16ee\JJ	.	16ee\JJ	.	16eee\JJ	.
4r	.	16C\LL	.	16c\LL	.	16dd\LL	.	16ddd\LL	.	4r	.	4r	.	.	.	4r	.	16C\LL	.	4r	2ryy	.	16dd\LL	.	16dd\LL	.	16ddd\LL	.
.	.	16D\	.	16d\	.	16cc\	.	16ccc\	.	.	.	.	.	.	.	.	.	16D\	.	.	.	.	16cc\	.	16cc\	.	16ccc\	.
.	.	16E\	.	16e\	.	16b\	.	16bb\	.	.	.	.	.	.	.	.	.	16E\	.	.	.	.	16b\	.	16b\	.	16bb\	.
.	.	16F\JJ	.	16f\JJ	.	16a\JJ	.	16aa\JJ	.	.	.	.	.	.	.	.	.	16F\JJ	.	.	.	.	16a\JJ	.	16a\JJ	.	16aa\JJ	.
!	!	!LO:TX:t=P:problem:mixed beam	!	!	!	!	!	!	!	!	!	!	!	!	!	!	!	!LO:TX:t=P:problem:mixed beam	!	!	!	!	!	!	!LO:TX:t=P:problem:mixed beam	!	!	!
8r	.	8G\L	.	8g\L	.	8g/L	.	8gg\L	.	8r	.	8r	.	.	.	8r	.	8G/L	.	8r	.	.	8g/L	.	8g\L	.	8gg\L	.
!LO:SIC:s=8C/	!	!	!	!	!	!	!	!	!	!	!	!	!	!	!	!	!	!	!	!	!	!	!	!	!	!	!	!
8Re/	.	8GG/J	.	8bJ 8d\	.	8ddJ 8f/	.	8bbJ 8dd\	.	8GG/	.	8GG/	.	.	.	8b 8d/	.	8GG/J	.	8dd 8g/	.	.	8bJ 8d/	.	8gg\J	.	8bbJ 8dd\	.
!!LO:PB:g=original
*	*	*	*	*	*	*	*	*	*	*	*	*	*	*	*	*	*	*	*	*v	*v	*	*	*	*	*	*	*
=54	=54	=54	=54	=54	=54	=54	=54	=54	=54	=54	=54	=54	=54	=54	=54	=54	=54	=54	=54	=54	=54	=54	=54	=54	=54	=54	=54
!LO:SIC:s=4C/	!	!	!	!	!	!	!	!	!	!	!	!	!	!	!	!	!	!	!	!	!	!	!	!	!	!	!
4Re/	.	4C/	.	4cc 4e\	.	4cc 4e/	.	4ccc 4ee\	.	4C/	.	4C/	.	2.ryy	.	4cc 4e/	.	4C/	.	4cc 4e/	.	4cc 4e/	.	4ee\	.	4ccc\	.
4r	.	4r	.	4r	.	4r	.	4r	.	4r	.	4r	.	.	.	4r	.	4r	.	4r	.	4r	.	4r	.	4r	.
4r	.	4r	.	4r	.	4r	.	4r	.	4r	.	4r	.	.	.	4r	.	4r	.	4r	.	4r	.	4r	.	4r	.
==	==	==	==	==	==	==	==	==	==	==	==	==	==	==	==	==	==	==	==	==	==	==	==	==	==	==	==
*-	*-	*-	*-	*-	*-	*-	*-	*-	*-	*-	*-	*-	*-	*-	*-	*-	*-	*-	*-	*-	*-	*-	*-	*-	*-	*-	*-
!!title: @{OTL};
!!!RDF**kern: > = above
!!!RDF**kern: < = below
!!!RDF**dynam: > = "dim.", fontstyle= "bold-italic"
!!!RDF**dynam: < = "cresc.", fontstyle= "bold-italic"
!!!RDF**kern: | = vertical stroke
!!!RDF**kern: N = linked
!!!RDF**kern: i = editorial accidental
!!!EED: Wojciech Jakubiak-Danek
!!!EST: 2021-07-10
!!!URL-scan: http://repozytorium.nifc.pl/skany/pl-wtm-nut--r1434
!!!ONB-nifc:
!!!ENC: Anastazja Marusiak
!!!END: 2021-06-28
